(.../external-ulp/pcb-gcode/pcb-gcode.ulp)
(Copyright 2005 - 2012 by John Johnson)
(See readme.txt for licensing terms.)
(This file generated from the board:)
(.../LCD shift register Attiny85.brd)
(Current profile is .../pcb-gcode/profiles/generic.pp  )
(This file generated 10.10.2016 21.28)
(Settings from pcb-machine.h)
(spindle on time = 0.0000)
(  Tool Size)
(0.7925 )
(spindle speed = 8500.0000)
(tool change at 0.0000 0.0000 25.4000 )
(feed rate xy = F200.00 )
(feed rate z  = F100.00 )
(Z Axis Settings)
(  High     Up        Down     Drill)
(5.0000 	2.5400 	-0.1500 	-1.6500 )
(Settings from pcb-defaults.h)
(isolate min = 0.0000)
(isolate max = 0.5080)
(isolate step = 0.1290)
(Generated bottom outlines, )
(Unit of measure: mm)
(Metric Mode)
G21
(Absolute Coordinates)
G90
S8500
G00 Z5.0000 
G00 X0.0000 Y0.0000 
M03
G04 P0.000000
G00 Z2.5400 
G00 X-7.1544 Y11.0479 
G01 Z-0.1500 F100.00 
G01 X-7.2379 Y10.9644 F200.00 
G01 X-7.3361 Y10.8988 
G01 X-7.4451 Y10.8536 
G01 X-7.5610 Y10.8306 
G01 X-24.1890 Y10.8306 
G01 X-24.3048 Y10.8536 
G01 X-24.4139 Y10.8988 
G01 X-24.5121 Y10.9644 
G01 X-24.5956 Y11.0479 
G01 X-24.6612 Y11.1461 
G01 X-24.7064 Y11.2551 
G01 X-24.7294 Y11.3710 
G01 X-24.7294 Y23.5306 
G01 X-27.3406 Y23.5306 
G01 X-27.3406 Y22.6287 
G01 X-27.3170 Y22.6458 
G01 X-27.1439 Y22.7340 
G01 X-26.9591 Y22.7940 
G01 X-26.7672 Y22.8244 
G01 X-26.5728 Y22.8244 
G01 X-26.3809 Y22.7940 
G01 X-26.1961 Y22.7340 
G01 X-26.0230 Y22.6458 
G01 X-25.8658 Y22.5316 
G01 X-25.7284 Y22.3942 
G01 X-25.6142 Y22.2370 
G01 X-25.5260 Y22.0639 
G01 X-25.4660 Y21.8791 
G01 X-25.4356 Y21.6872 
G01 X-25.4356 Y21.4928 
G01 X-25.4660 Y21.3009 
G01 X-25.5260 Y21.1161 
G01 X-25.6142 Y20.9430 
G01 X-25.7284 Y20.7858 
G01 X-25.8658 Y20.6484 
G01 X-26.0230 Y20.5342 
G01 X-26.1961 Y20.4460 
G01 X-26.3809 Y20.3860 
G01 X-26.5728 Y20.3556 
G01 X-26.7672 Y20.3556 
G01 X-26.9591 Y20.3860 
G01 X-27.1439 Y20.4460 
G01 X-27.3170 Y20.5342 
G01 X-27.4742 Y20.6484 
G01 X-27.6116 Y20.7858 
G01 X-27.7258 Y20.9430 
G01 X-27.7500 Y20.9906 
G01 X-27.9990 Y20.9906 
G01 X-28.1149 Y21.0136 
G01 X-28.2239 Y21.0588 
G01 X-28.3221 Y21.1244 
G01 X-28.4056 Y21.2079 
G01 X-28.4712 Y21.3061 
G01 X-28.5164 Y21.4151 
G01 X-28.5394 Y21.5310 
G01 X-28.5394 Y24.1890 
G01 X-28.5164 Y24.3048 
G01 X-28.4712 Y24.4139 
G01 X-28.4056 Y24.5121 
G01 X-28.3221 Y24.5956 
G01 X-28.2239 Y24.6612 
G01 X-28.1149 Y24.7064 
G01 X-27.9990 Y24.7294 
G01 X-24.7294 Y24.7294 
G01 X-24.7294 Y28.6106 
G01 X-25.1390 Y28.6106 
G01 X-25.2036 Y28.5216 
G01 X-25.3212 Y28.4040 
G01 X-25.4558 Y28.3063 
G01 X-25.6040 Y28.2308 
G01 X-25.7622 Y28.1794 
G01 X-25.9264 Y28.1534 
G01 X-27.4136 Y28.1534 
G01 X-27.5778 Y28.1794 
G01 X-27.7360 Y28.2308 
G01 X-27.8842 Y28.3063 
G01 X-28.0188 Y28.4040 
G01 X-28.1364 Y28.5216 
G01 X-28.2010 Y28.6106 
G01 X-28.3224 Y28.6106 
G01 X-28.3376 Y28.5539 
G01 X-28.3897 Y28.4635 
G01 X-28.4635 Y28.3897 
G01 X-28.5539 Y28.3376 
G01 X-28.6546 Y28.3106 
G01 X-29.7654 Y28.3106 
G01 X-29.8661 Y28.3376 
G01 X-29.8806 Y28.3459 
G01 X-29.8806 Y19.6494 
G01 X-27.7500 Y19.6494 
G01 X-27.7258 Y19.6970 
G01 X-27.6116 Y19.8542 
G01 X-27.4742 Y19.9916 
G01 X-27.3170 Y20.1058 
G01 X-27.1439 Y20.1940 
G01 X-26.9591 Y20.2540 
G01 X-26.7672 Y20.2844 
G01 X-26.5728 Y20.2844 
G01 X-26.3809 Y20.2540 
G01 X-26.1961 Y20.1940 
G01 X-26.0230 Y20.1058 
G01 X-25.8658 Y19.9916 
G01 X-25.7284 Y19.8542 
G01 X-25.6142 Y19.6970 
G01 X-25.5260 Y19.5239 
G01 X-25.4660 Y19.3391 
G01 X-25.4356 Y19.1472 
G01 X-25.4356 Y18.9528 
G01 X-25.4660 Y18.7609 
G01 X-25.5260 Y18.5761 
G01 X-25.6142 Y18.4030 
G01 X-25.7284 Y18.2458 
G01 X-25.8658 Y18.1084 
G01 X-26.0230 Y17.9942 
G01 X-26.1961 Y17.9060 
G01 X-26.3809 Y17.8460 
G01 X-26.5728 Y17.8156 
G01 X-26.7672 Y17.8156 
G01 X-26.9591 Y17.8460 
G01 X-27.1439 Y17.9060 
G01 X-27.3170 Y17.9942 
G01 X-27.4742 Y18.1084 
G01 X-27.6116 Y18.2458 
G01 X-27.7258 Y18.4030 
G01 X-27.7500 Y18.4506 
G01 X-30.5390 Y18.4506 
G01 X-30.6548 Y18.4736 
G01 X-30.7639 Y18.5188 
G01 X-30.8621 Y18.5844 
G01 X-30.9456 Y18.6679 
G01 X-31.0112 Y18.7661 
G01 X-31.0564 Y18.8751 
G01 X-31.0794 Y18.9910 
G01 X-31.0794 Y30.5390 
G01 X-31.0564 Y30.6548 
G01 X-31.0112 Y30.7639 
G01 X-30.9456 Y30.8621 
G01 X-29.6756 Y32.1321 
G01 X-29.5921 Y32.2156 
G01 X-29.4939 Y32.2812 
G01 X-29.3849 Y32.3264 
G01 X-29.2690 Y32.3494 
G01 X-28.2010 Y32.3494 
G01 X-28.1364 Y32.4384 
G01 X-28.0188 Y32.5560 
G01 X-27.8842 Y32.6537 
G01 X-27.7360 Y32.7292 
G01 X-27.5778 Y32.7806 
G01 X-27.4136 Y32.8066 
G01 X-25.9264 Y32.8066 
G01 X-25.7622 Y32.7806 
G01 X-25.6040 Y32.7292 
G01 X-25.4558 Y32.6537 
G01 X-25.3212 Y32.5560 
G01 X-25.2036 Y32.4384 
G01 X-25.1059 Y32.3038 
G01 X-25.0304 Y32.1556 
G01 X-24.9790 Y31.9974 
G01 X-24.9530 Y31.8332 
G01 X-24.9530 Y31.6668 
G01 X-24.9790 Y31.5026 
G01 X-25.0304 Y31.3444 
G01 X-25.1059 Y31.1962 
G01 X-25.2036 Y31.0616 
G01 X-25.3212 Y30.9440 
G01 X-25.4558 Y30.8463 
G01 X-25.6040 Y30.7708 
G01 X-25.7622 Y30.7194 
G01 X-25.9264 Y30.6934 
G01 X-27.4136 Y30.6934 
G01 X-27.5778 Y30.7194 
G01 X-27.7360 Y30.7708 
G01 X-27.8842 Y30.8463 
G01 X-28.0188 Y30.9440 
G01 X-28.1364 Y31.0616 
G01 X-28.2010 Y31.1506 
G01 X-28.9617 Y31.1506 
G01 X-29.8806 Y30.2317 
G01 X-29.8806 Y30.0741 
G01 X-29.8661 Y30.0824 
G01 X-29.7654 Y30.1094 
G01 X-28.6546 Y30.1094 
G01 X-28.5539 Y30.0824 
G01 X-28.4635 Y30.0303 
G01 X-28.3897 Y29.9565 
G01 X-28.3376 Y29.8661 
G01 X-28.3224 Y29.8094 
G01 X-28.2010 Y29.8094 
G01 X-28.1364 Y29.8984 
G01 X-28.0188 Y30.0160 
G01 X-27.8842 Y30.1137 
G01 X-27.7360 Y30.1892 
G01 X-27.5778 Y30.2406 
G01 X-27.4136 Y30.2666 
G01 X-25.9264 Y30.2666 
G01 X-25.7622 Y30.2406 
G01 X-25.6040 Y30.1892 
G01 X-25.4558 Y30.1137 
G01 X-25.3212 Y30.0160 
G01 X-25.2036 Y29.8984 
G01 X-25.1390 Y29.8094 
G01 X-24.0710 Y29.8094 
G01 X-23.9551 Y29.7864 
G01 X-23.8461 Y29.7412 
G01 X-23.7479 Y29.6756 
G01 X-23.6644 Y29.5921 
G01 X-23.5988 Y29.4939 
G01 X-23.5536 Y29.3849 
G01 X-23.5306 Y29.2690 
G01 X-23.5306 Y12.0294 
G01 X-8.2194 Y12.0294 
G01 X-8.2194 Y17.4054 
G01 X-8.3414 Y17.4941 
G01 X-8.4647 Y17.6173 
G01 X-8.5672 Y17.7584 
G01 X-8.6463 Y17.9137 
G01 X-8.7002 Y18.0795 
G01 X-8.7274 Y18.2516 
G01 X-8.7274 Y19.8484 
G01 X-8.7002 Y20.0205 
G01 X-8.6463 Y20.1863 
G01 X-8.5672 Y20.3416 
G01 X-8.4647 Y20.4826 
G01 X-8.3414 Y20.6059 
G01 X-8.2194 Y20.6945 
G01 X-8.2194 Y23.5306 
G01 X-9.5606 Y23.5306 
G01 X-9.5606 Y20.6945 
G01 X-9.4385 Y20.6059 
G01 X-9.3153 Y20.4826 
G01 X-9.2128 Y20.3416 
G01 X-9.1337 Y20.1863 
G01 X-9.0798 Y20.0205 
G01 X-9.0526 Y19.8484 
G01 X-9.0526 Y18.2516 
G01 X-9.0798 Y18.0795 
G01 X-9.1337 Y17.9137 
G01 X-9.2128 Y17.7584 
G01 X-9.3153 Y17.6173 
G01 X-9.4385 Y17.4941 
G01 X-9.5606 Y17.4054 
G01 X-9.5606 Y13.9110 
G01 X-9.5836 Y13.7951 
G01 X-9.6288 Y13.6861 
G01 X-9.6944 Y13.5879 
G01 X-9.7779 Y13.5044 
G01 X-9.8761 Y13.4388 
G01 X-9.9851 Y13.3936 
G01 X-10.1010 Y13.3706 
G01 X-17.9700 Y13.3706 
G01 X-17.9942 Y13.3230 
G01 X-18.1084 Y13.1658 
G01 X-18.2458 Y13.0284 
G01 X-18.4030 Y12.9142 
G01 X-18.5761 Y12.8260 
G01 X-18.7609 Y12.7660 
G01 X-18.9528 Y12.7356 
G01 X-19.1472 Y12.7356 
G01 X-19.3391 Y12.7660 
G01 X-19.5239 Y12.8260 
G01 X-19.6970 Y12.9142 
G01 X-19.8542 Y13.0284 
G01 X-19.9916 Y13.1658 
G01 X-20.1058 Y13.3230 
G01 X-20.1940 Y13.4961 
G01 X-20.2540 Y13.6809 
G01 X-20.2844 Y13.8728 
G01 X-20.2844 Y14.0672 
G01 X-20.2540 Y14.2591 
G01 X-20.1940 Y14.4439 
G01 X-20.1058 Y14.6170 
G01 X-19.9916 Y14.7742 
G01 X-19.8542 Y14.9116 
G01 X-19.6970 Y15.0258 
G01 X-19.5239 Y15.1140 
G01 X-19.3391 Y15.1740 
G01 X-19.1472 Y15.2044 
G01 X-18.9528 Y15.2044 
G01 X-18.7609 Y15.1740 
G01 X-18.5761 Y15.1140 
G01 X-18.4030 Y15.0258 
G01 X-18.2458 Y14.9116 
G01 X-18.1084 Y14.7742 
G01 X-17.9942 Y14.6170 
G01 X-17.9700 Y14.5694 
G01 X-10.7594 Y14.5694 
G01 X-10.7594 Y17.4054 
G01 X-10.8814 Y17.4941 
G01 X-11.0047 Y17.6173 
G01 X-11.1072 Y17.7584 
G01 X-11.1863 Y17.9137 
G01 X-11.2402 Y18.0795 
G01 X-11.2674 Y18.2516 
G01 X-11.2674 Y19.8484 
G01 X-11.2402 Y20.0205 
G01 X-11.1863 Y20.1863 
G01 X-11.1072 Y20.3416 
G01 X-11.0047 Y20.4826 
G01 X-10.8814 Y20.6059 
G01 X-10.7594 Y20.6945 
G01 X-10.7594 Y23.5306 
G01 X-14.3524 Y23.5306 
G01 X-14.3619 Y23.4950 
G01 X-14.3406 Y23.4154 
G01 X-14.3406 Y22.3046 
G01 X-14.3676 Y22.2039 
G01 X-14.4197 Y22.1135 
G01 X-14.4935 Y22.0397 
G01 X-14.5839 Y21.9876 
G01 X-14.6846 Y21.9606 
G01 X-15.7954 Y21.9606 
G01 X-15.8750 Y21.9819 
G01 X-15.9546 Y21.9606 
G01 X-17.0654 Y21.9606 
G01 X-17.1661 Y21.9876 
G01 X-17.2565 Y22.0397 
G01 X-17.3303 Y22.1135 
G01 X-17.3824 Y22.2039 
G01 X-17.4094 Y22.3046 
G01 X-17.4094 Y23.4154 
G01 X-17.3824 Y23.5161 
G01 X-17.3303 Y23.6065 
G01 X-17.2565 Y23.6803 
G01 X-17.1661 Y23.7324 
G01 X-17.0654 Y23.7594 
G01 X-16.1394 Y23.7594 
G01 X-16.1394 Y24.6854 
G01 X-16.1124 Y24.7861 
G01 X-16.0603 Y24.8765 
G01 X-15.9865 Y24.9503 
G01 X-15.8961 Y25.0024 
G01 X-15.7954 Y25.0294 
G01 X-14.6846 Y25.0294 
G01 X-14.5839 Y25.0024 
G01 X-14.4935 Y24.9503 
G01 X-14.4197 Y24.8765 
G01 X-14.3676 Y24.7861 
G01 X-14.3524 Y24.7294 
G01 X-10.7594 Y24.7294 
G01 X-10.7594 Y25.7033 
G01 X-11.1267 Y26.0706 
G01 X-17.5190 Y26.0706 
G01 X-17.5836 Y25.9816 
G01 X-17.7012 Y25.8640 
G01 X-17.8358 Y25.7663 
G01 X-17.9840 Y25.6908 
G01 X-18.1422 Y25.6394 
G01 X-18.3064 Y25.6134 
G01 X-19.7936 Y25.6134 
G01 X-19.9578 Y25.6394 
G01 X-20.1160 Y25.6908 
G01 X-20.2642 Y25.7663 
G01 X-20.3988 Y25.8640 
G01 X-20.5164 Y25.9816 
G01 X-20.5810 Y26.0706 
G01 X-21.6490 Y26.0706 
G01 X-21.7648 Y26.0936 
G01 X-21.8739 Y26.1388 
G01 X-21.9721 Y26.2044 
G01 X-22.0556 Y26.2879 
G01 X-22.1212 Y26.3861 
G01 X-22.1664 Y26.4951 
G01 X-22.1894 Y26.6110 
G01 X-22.1894 Y36.2306 
G01 X-25.1390 Y36.2306 
G01 X-25.2036 Y36.1416 
G01 X-25.3212 Y36.0240 
G01 X-25.4558 Y35.9263 
G01 X-25.6040 Y35.8508 
G01 X-25.7622 Y35.7994 
G01 X-25.9264 Y35.7734 
G01 X-27.4136 Y35.7734 
G01 X-27.5778 Y35.7994 
G01 X-27.7360 Y35.8508 
G01 X-27.8842 Y35.9263 
G01 X-28.0188 Y36.0240 
G01 X-28.1364 Y36.1416 
G01 X-28.2341 Y36.2762 
G01 X-28.3096 Y36.4244 
G01 X-28.3610 Y36.5826 
G01 X-28.3870 Y36.7468 
G01 X-28.3870 Y36.9132 
G01 X-28.3610 Y37.0774 
G01 X-28.3096 Y37.2356 
G01 X-28.2341 Y37.3838 
G01 X-28.1364 Y37.5184 
G01 X-28.0188 Y37.6360 
G01 X-27.8842 Y37.7337 
G01 X-27.7360 Y37.8092 
G01 X-27.5778 Y37.8606 
G01 X-27.4136 Y37.8866 
G01 X-25.9264 Y37.8866 
G01 X-25.7622 Y37.8606 
G01 X-25.6040 Y37.8092 
G01 X-25.4558 Y37.7337 
G01 X-25.3212 Y37.6360 
G01 X-25.2036 Y37.5184 
G01 X-25.1390 Y37.4294 
G01 X-21.5310 Y37.4294 
G01 X-21.4151 Y37.4064 
G01 X-21.3061 Y37.3612 
G01 X-21.2079 Y37.2956 
G01 X-21.1244 Y37.2121 
G01 X-21.0588 Y37.1139 
G01 X-21.0136 Y37.0048 
G01 X-20.9906 Y36.8890 
G01 X-20.9906 Y27.2694 
G01 X-20.5810 Y27.2694 
G01 X-20.5164 Y27.3584 
G01 X-20.3988 Y27.4760 
G01 X-20.2642 Y27.5737 
G01 X-20.1160 Y27.6492 
G01 X-19.9578 Y27.7006 
G01 X-19.7936 Y27.7266 
G01 X-18.3064 Y27.7266 
G01 X-18.1422 Y27.7006 
G01 X-17.9840 Y27.6492 
G01 X-17.8358 Y27.5737 
G01 X-17.7012 Y27.4760 
G01 X-17.5836 Y27.3584 
G01 X-17.5190 Y27.2694 
G01 X-11.1267 Y27.2694 
G01 X-10.6187 Y27.7774 
G01 X-9.9003 Y27.7774 
G01 X-9.4894 Y28.1883 
G01 X-9.4894 Y28.3144 
G01 X-9.7013 Y28.1026 
G01 X-10.6187 Y28.1026 
G01 X-11.1267 Y28.6106 
G01 X-14.0290 Y28.6106 
G01 X-14.1448 Y28.6336 
G01 X-14.2539 Y28.6788 
G01 X-14.3521 Y28.7444 
G01 X-14.4356 Y28.8279 
G01 X-14.5012 Y28.9261 
G01 X-14.5464 Y29.0351 
G01 X-14.5694 Y29.1510 
G01 X-14.5694 Y30.8859 
G01 X-14.5839 Y30.8776 
G01 X-14.6846 Y30.8506 
G01 X-15.7954 Y30.8506 
G01 X-15.8961 Y30.8776 
G01 X-15.9865 Y30.9297 
G01 X-16.0603 Y31.0035 
G01 X-16.1124 Y31.0939 
G01 X-16.1276 Y31.1506 
G01 X-17.5190 Y31.1506 
G01 X-17.5836 Y31.0616 
G01 X-17.7012 Y30.9440 
G01 X-17.8358 Y30.8463 
G01 X-17.9840 Y30.7708 
G01 X-18.1422 Y30.7194 
G01 X-18.3064 Y30.6934 
G01 X-19.7936 Y30.6934 
G01 X-19.9578 Y30.7194 
G01 X-20.1160 Y30.7708 
G01 X-20.2642 Y30.8463 
G01 X-20.3988 Y30.9440 
G01 X-20.5164 Y31.0616 
G01 X-20.6141 Y31.1962 
G01 X-20.6896 Y31.3444 
G01 X-20.7410 Y31.5026 
G01 X-20.7670 Y31.6668 
G01 X-20.7670 Y31.8332 
G01 X-20.7410 Y31.9974 
G01 X-20.6896 Y32.1556 
G01 X-20.6141 Y32.3038 
G01 X-20.5164 Y32.4384 
G01 X-20.3988 Y32.5560 
G01 X-20.2642 Y32.6537 
G01 X-20.1160 Y32.7292 
G01 X-19.9578 Y32.7806 
G01 X-19.7936 Y32.8066 
G01 X-18.3064 Y32.8066 
G01 X-18.1422 Y32.7806 
G01 X-17.9840 Y32.7292 
G01 X-17.8358 Y32.6537 
G01 X-17.7012 Y32.5560 
G01 X-17.5836 Y32.4384 
G01 X-17.5190 Y32.3494 
G01 X-16.1276 Y32.3494 
G01 X-16.1124 Y32.4061 
G01 X-16.0603 Y32.4965 
G01 X-15.9865 Y32.5703 
G01 X-15.8961 Y32.6224 
G01 X-15.7954 Y32.6494 
G01 X-15.7133 Y32.6494 
G01 X-15.7712 Y32.7361 
G01 X-15.8164 Y32.8451 
G01 X-15.8394 Y32.9610 
G01 X-15.8394 Y38.5059 
G01 X-15.8539 Y38.4976 
G01 X-15.9546 Y38.4706 
G01 X-17.0654 Y38.4706 
G01 X-17.1661 Y38.4976 
G01 X-17.2565 Y38.5497 
G01 X-17.3303 Y38.6235 
G01 X-17.3824 Y38.7139 
G01 X-17.3976 Y38.7706 
G01 X-17.5190 Y38.7706 
G01 X-17.5836 Y38.6816 
G01 X-17.7012 Y38.5640 
G01 X-17.8358 Y38.4663 
G01 X-17.9840 Y38.3908 
G01 X-18.1422 Y38.3394 
G01 X-18.3064 Y38.3134 
G01 X-19.7936 Y38.3134 
G01 X-19.9578 Y38.3394 
G01 X-20.1160 Y38.3908 
G01 X-20.2642 Y38.4663 
G01 X-20.3988 Y38.5640 
G01 X-20.5164 Y38.6816 
G01 X-20.6141 Y38.8162 
G01 X-20.6896 Y38.9644 
G01 X-20.7410 Y39.1226 
G01 X-20.7670 Y39.2868 
G01 X-20.7670 Y39.4532 
G01 X-20.7410 Y39.6174 
G01 X-20.6896 Y39.7756 
G01 X-20.6141 Y39.9238 
G01 X-20.5164 Y40.0584 
G01 X-20.3988 Y40.1760 
G01 X-20.2642 Y40.2737 
G01 X-20.1160 Y40.3492 
G01 X-19.9578 Y40.4006 
G01 X-19.7936 Y40.4266 
G01 X-18.3064 Y40.4266 
G01 X-18.1422 Y40.4006 
G01 X-17.9840 Y40.3492 
G01 X-17.8358 Y40.2737 
G01 X-17.7012 Y40.1760 
G01 X-17.5836 Y40.0584 
G01 X-17.5190 Y39.9694 
G01 X-17.3976 Y39.9694 
G01 X-17.3824 Y40.0261 
G01 X-17.3303 Y40.1165 
G01 X-17.2565 Y40.1903 
G01 X-17.1661 Y40.2424 
G01 X-17.0654 Y40.2694 
G01 X-15.9546 Y40.2694 
G01 X-15.8539 Y40.2424 
G01 X-15.8394 Y40.2341 
G01 X-15.8394 Y43.5859 
G01 X-15.8539 Y43.5776 
G01 X-15.9546 Y43.5506 
G01 X-17.0654 Y43.5506 
G01 X-17.1661 Y43.5776 
G01 X-17.2565 Y43.6297 
G01 X-17.3303 Y43.7035 
G01 X-17.3824 Y43.7939 
G01 X-17.3976 Y43.8506 
G01 X-17.5190 Y43.8506 
G01 X-17.5836 Y43.7616 
G01 X-17.7012 Y43.6440 
G01 X-17.8358 Y43.5463 
G01 X-17.9840 Y43.4708 
G01 X-18.1422 Y43.4194 
G01 X-18.3064 Y43.3934 
G01 X-19.7936 Y43.3934 
G01 X-19.9578 Y43.4194 
G01 X-20.1160 Y43.4708 
G01 X-20.2642 Y43.5463 
G01 X-20.3988 Y43.6440 
G01 X-20.5164 Y43.7616 
G01 X-20.6141 Y43.8962 
G01 X-20.6896 Y44.0444 
G01 X-20.7410 Y44.2026 
G01 X-20.7670 Y44.3668 
G01 X-20.7670 Y44.5332 
G01 X-20.7410 Y44.6974 
G01 X-20.6896 Y44.8556 
G01 X-20.6141 Y45.0038 
G01 X-20.5164 Y45.1384 
G01 X-20.3988 Y45.2560 
G01 X-20.2642 Y45.3537 
G01 X-20.1160 Y45.4292 
G01 X-19.9578 Y45.4806 
G01 X-19.7936 Y45.5066 
G01 X-18.3064 Y45.5066 
G01 X-18.1422 Y45.4806 
G01 X-17.9840 Y45.4292 
G01 X-17.8358 Y45.3537 
G01 X-17.7012 Y45.2560 
G01 X-17.5836 Y45.1384 
G01 X-17.5190 Y45.0494 
G01 X-17.3976 Y45.0494 
G01 X-17.3824 Y45.1061 
G01 X-17.3303 Y45.1965 
G01 X-17.2565 Y45.2703 
G01 X-17.1661 Y45.3224 
G01 X-17.0654 Y45.3494 
G01 X-15.9546 Y45.3494 
G01 X-15.8539 Y45.3224 
G01 X-15.8394 Y45.3141 
G01 X-15.8394 Y47.3959 
G01 X-15.8539 Y47.3876 
G01 X-15.9546 Y47.3606 
G01 X-17.0654 Y47.3606 
G01 X-17.1661 Y47.3876 
G01 X-17.2565 Y47.4397 
G01 X-17.3303 Y47.5135 
G01 X-17.3824 Y47.6039 
G01 X-17.3976 Y47.6606 
G01 X-20.9906 Y47.6606 
G01 X-20.9906 Y42.5094 
G01 X-20.5810 Y42.5094 
G01 X-20.5164 Y42.5984 
G01 X-20.3988 Y42.7160 
G01 X-20.2642 Y42.8137 
G01 X-20.1160 Y42.8892 
G01 X-19.9578 Y42.9406 
G01 X-19.7936 Y42.9666 
G01 X-18.3064 Y42.9666 
G01 X-18.1422 Y42.9406 
G01 X-17.9840 Y42.8892 
G01 X-17.8358 Y42.8137 
G01 X-17.7012 Y42.7160 
G01 X-17.5836 Y42.5984 
G01 X-17.4859 Y42.4638 
G01 X-17.4104 Y42.3156 
G01 X-17.3590 Y42.1574 
G01 X-17.3330 Y41.9932 
G01 X-17.3330 Y41.8268 
G01 X-17.3590 Y41.6626 
G01 X-17.4104 Y41.5044 
G01 X-17.4859 Y41.3562 
G01 X-17.5836 Y41.2216 
G01 X-17.7012 Y41.1040 
G01 X-17.8358 Y41.0063 
G01 X-17.9840 Y40.9308 
G01 X-18.1422 Y40.8794 
G01 X-18.3064 Y40.8534 
G01 X-19.7936 Y40.8534 
G01 X-19.9578 Y40.8794 
G01 X-20.1160 Y40.9308 
G01 X-20.2642 Y41.0063 
G01 X-20.3988 Y41.1040 
G01 X-20.5164 Y41.2216 
G01 X-20.5810 Y41.3106 
G01 X-21.6490 Y41.3106 
G01 X-21.7648 Y41.3336 
G01 X-21.8739 Y41.3788 
G01 X-21.9721 Y41.4444 
G01 X-22.0556 Y41.5279 
G01 X-22.1212 Y41.6261 
G01 X-22.1664 Y41.7351 
G01 X-22.1894 Y41.8510 
G01 X-22.1894 Y48.3190 
G01 X-22.1664 Y48.4348 
G01 X-22.1212 Y48.5439 
G01 X-22.0556 Y48.6421 
G01 X-21.9721 Y48.7256 
G01 X-21.8739 Y48.7912 
G01 X-21.7648 Y48.8364 
G01 X-21.6490 Y48.8594 
G01 X-17.3976 Y48.8594 
G01 X-17.3824 Y48.9161 
G01 X-17.3303 Y49.0065 
G01 X-17.2565 Y49.0803 
G01 X-17.1661 Y49.1324 
G01 X-17.0654 Y49.1594 
G01 X-15.9546 Y49.1594 
G01 X-15.8539 Y49.1324 
G01 X-15.8394 Y49.1241 
G01 X-15.8394 Y51.1751 
G01 X-15.8750 Y51.2107 
G01 X-16.0723 Y51.0134 
G01 X-16.9477 Y51.0134 
G01 X-17.5666 Y51.6323 
G01 X-17.5666 Y52.5077 
G01 X-16.9477 Y53.1266 
G01 X-16.0723 Y53.1266 
G01 X-15.8750 Y52.9293 
G01 X-15.6777 Y53.1266 
G01 X-14.8023 Y53.1266 
G01 X-14.1834 Y52.5077 
G01 X-14.1834 Y51.6323 
G01 X-14.6406 Y51.1751 
G01 X-14.6406 Y33.6194 
G01 X-13.9110 Y33.6194 
G01 X-13.7951 Y33.5964 
G01 X-13.6861 Y33.5512 
G01 X-13.5879 Y33.4856 
G01 X-13.5044 Y33.4021 
G01 X-13.4388 Y33.3039 
G01 X-13.3936 Y33.1949 
G01 X-13.3706 Y33.0790 
G01 X-13.3706 Y29.8094 
G01 X-11.1267 Y29.8094 
G01 X-10.6187 Y30.3174 
G01 X-9.7013 Y30.3174 
G01 X-9.4894 Y30.1056 
G01 X-9.4894 Y30.8544 
G01 X-9.7013 Y30.6426 
G01 X-10.6187 Y30.6426 
G01 X-11.1267 Y31.1506 
G01 X-12.7590 Y31.1506 
G01 X-12.8749 Y31.1736 
G01 X-12.9839 Y31.2188 
G01 X-13.0821 Y31.2844 
G01 X-13.1656 Y31.3679 
G01 X-13.2312 Y31.4661 
G01 X-13.2764 Y31.5751 
G01 X-13.2994 Y31.6910 
G01 X-13.2994 Y37.5006 
G01 X-14.0290 Y37.5006 
G01 X-14.1448 Y37.5236 
G01 X-14.2539 Y37.5688 
G01 X-14.3521 Y37.6344 
G01 X-14.4356 Y37.7179 
G01 X-14.5012 Y37.8161 
G01 X-14.5464 Y37.9251 
G01 X-14.5694 Y38.0410 
G01 X-14.5694 Y47.0490 
G01 X-14.5464 Y47.1649 
G01 X-14.5012 Y47.2739 
G01 X-14.4356 Y47.3721 
G01 X-14.3521 Y47.4556 
G01 X-14.2539 Y47.5212 
G01 X-14.1448 Y47.5664 
G01 X-14.0290 Y47.5894 
G01 X-10.7594 Y47.5894 
G01 X-10.7594 Y52.1290 
G01 X-10.7364 Y52.2448 
G01 X-10.6912 Y52.3539 
G01 X-10.6256 Y52.4521 
G01 X-10.5421 Y52.5356 
G01 X-10.4439 Y52.6012 
G01 X-10.3348 Y52.6464 
G01 X-10.2190 Y52.6694 
G01 X-5.9749 Y52.6694 
G01 X-5.5177 Y53.1266 
G01 X-4.6423 Y53.1266 
G01 X-4.0234 Y52.5077 
G01 X-4.0234 Y51.6323 
G01 X-4.4806 Y51.1751 
G01 X-4.4806 Y50.3941 
G01 X-4.4661 Y50.4024 
G01 X-4.3654 Y50.4294 
G01 X-3.2546 Y50.4294 
G01 X-3.1539 Y50.4024 
G01 X-3.0635 Y50.3503 
G01 X-2.9897 Y50.2765 
G01 X-2.9376 Y50.1861 
G01 X-2.9106 Y50.0854 
G01 X-2.9106 Y49.1594 
G01 X-1.9846 Y49.1594 
G01 X-1.8839 Y49.1324 
G01 X-1.7935 Y49.0803 
G01 X-1.7197 Y49.0065 
G01 X-1.6676 Y48.9161 
G01 X-1.6406 Y48.8154 
G01 X-1.6406 Y47.8894 
G01 X-0.7146 Y47.8894 
G01 X-0.6139 Y47.8624 
G01 X-0.5235 Y47.8103 
G01 X-0.4497 Y47.7365 
G01 X-0.3976 Y47.6461 
G01 X-0.3706 Y47.5454 
G01 X-0.3706 Y46.4346 
G01 X-0.3976 Y46.3339 
G01 X-0.4497 Y46.2435 
G01 X-0.5235 Y46.1697 
G01 X-0.6139 Y46.1176 
G01 X-0.6706 Y46.1024 
G01 X-0.6706 Y26.6110 
G01 X-0.6936 Y26.4951 
G01 X-0.7388 Y26.3861 
G01 X-0.8044 Y26.2879 
G01 X-0.8879 Y26.2044 
G01 X-0.9861 Y26.1388 
G01 X-1.0951 Y26.0936 
G01 X-1.2110 Y26.0706 
G01 X-6.6533 Y26.0706 
G01 X-7.0206 Y25.7033 
G01 X-7.0206 Y24.7294 
G01 X-3.4276 Y24.7294 
G01 X-3.4124 Y24.7861 
G01 X-3.3603 Y24.8765 
G01 X-3.2865 Y24.9503 
G01 X-3.1961 Y25.0024 
G01 X-3.0954 Y25.0294 
G01 X-1.9846 Y25.0294 
G01 X-1.8839 Y25.0024 
G01 X-1.7935 Y24.9503 
G01 X-1.7197 Y24.8765 
G01 X-1.6676 Y24.7861 
G01 X-1.6406 Y24.6854 
G01 X-1.6406 Y23.5746 
G01 X-1.6676 Y23.4739 
G01 X-1.7197 Y23.3835 
G01 X-1.7935 Y23.3097 
G01 X-1.8839 Y23.2576 
G01 X-1.9846 Y23.2306 
G01 X-2.9106 Y23.2306 
G01 X-2.9106 Y22.3046 
G01 X-2.9376 Y22.2039 
G01 X-2.9897 Y22.1135 
G01 X-3.0635 Y22.0397 
G01 X-3.1539 Y21.9876 
G01 X-3.2546 Y21.9606 
G01 X-4.3654 Y21.9606 
G01 X-4.4450 Y21.9819 
G01 X-4.5246 Y21.9606 
G01 X-5.6354 Y21.9606 
G01 X-5.7361 Y21.9876 
G01 X-5.8265 Y22.0397 
G01 X-5.9003 Y22.1135 
G01 X-5.9524 Y22.2039 
G01 X-5.9794 Y22.3046 
G01 X-5.9794 Y23.4154 
G01 X-5.9524 Y23.5161 
G01 X-5.9441 Y23.5306 
G01 X-7.0206 Y23.5306 
G01 X-7.0206 Y20.6945 
G01 X-6.8986 Y20.6059 
G01 X-6.7753 Y20.4826 
G01 X-6.6728 Y20.3416 
G01 X-6.5937 Y20.1863 
G01 X-6.5398 Y20.0205 
G01 X-6.5126 Y19.8484 
G01 X-6.5126 Y18.2516 
G01 X-6.5398 Y18.0795 
G01 X-6.5937 Y17.9137 
G01 X-6.6728 Y17.7584 
G01 X-6.7753 Y17.6173 
G01 X-6.8986 Y17.4941 
G01 X-7.0206 Y17.4054 
G01 X-7.0206 Y11.3710 
G01 X-7.0436 Y11.2551 
G01 X-7.0888 Y11.1461 
G01 X-7.1544 Y11.0479 
G00 Z2.5400 
G00 X-8.2194 Y24.7294 
G01 Z-0.1500 F100.00 
G01 X-8.2194 Y25.7033 F200.00 
G01 X-8.7274 Y26.2113 
G01 X-8.7274 Y27.1287 
G01 X-8.0787 Y27.7774 
G01 X-7.1613 Y27.7774 
G01 X-6.6533 Y27.2694 
G01 X-1.8694 Y27.2694 
G01 X-1.8694 Y30.8859 
G01 X-1.8839 Y30.8776 
G01 X-1.9846 Y30.8506 
G01 X-3.0954 Y30.8506 
G01 X-3.1961 Y30.8776 
G01 X-3.2865 Y30.9297 
G01 X-3.3603 Y31.0035 
G01 X-3.4124 Y31.0939 
G01 X-3.4276 Y31.1506 
G01 X-6.6533 Y31.1506 
G01 X-7.1613 Y30.6426 
G01 X-8.0787 Y30.6426 
G01 X-8.2906 Y30.8544 
G01 X-8.2906 Y30.1056 
G01 X-8.0787 Y30.3174 
G01 X-7.1613 Y30.3174 
G01 X-6.6533 Y29.8094 
G01 X-4.6976 Y29.8094 
G01 X-4.6824 Y29.8661 
G01 X-4.6303 Y29.9565 
G01 X-4.5565 Y30.0303 
G01 X-4.4661 Y30.0824 
G01 X-4.3654 Y30.1094 
G01 X-3.2546 Y30.1094 
G01 X-3.1539 Y30.0824 
G01 X-3.0635 Y30.0303 
G01 X-2.9897 Y29.9565 
G01 X-2.9376 Y29.8661 
G01 X-2.9106 Y29.7654 
G01 X-2.9106 Y28.6546 
G01 X-2.9376 Y28.5539 
G01 X-2.9897 Y28.4635 
G01 X-3.0635 Y28.3897 
G01 X-3.1539 Y28.3376 
G01 X-3.2546 Y28.3106 
G01 X-4.3654 Y28.3106 
G01 X-4.4661 Y28.3376 
G01 X-4.5565 Y28.3897 
G01 X-4.6303 Y28.4635 
G01 X-4.6824 Y28.5539 
G01 X-4.6976 Y28.6106 
G01 X-6.6533 Y28.6106 
G01 X-7.1613 Y28.1026 
G01 X-8.0787 Y28.1026 
G01 X-8.2906 Y28.3144 
G01 X-8.2906 Y27.8810 
G01 X-8.3136 Y27.7651 
G01 X-8.3588 Y27.6561 
G01 X-8.4244 Y27.5579 
G01 X-8.5079 Y27.4744 
G01 X-9.0526 Y26.9297 
G01 X-9.0526 Y26.2113 
G01 X-9.5606 Y25.7033 
G01 X-9.5606 Y24.7294 
G01 X-8.2194 Y24.7294 
G00 Z2.5400 
G00 X-8.6406 Y32.2955 
G01 Z-0.1500 F100.00 
G01 X-8.0787 Y32.8574 F200.00 
G01 X-7.1613 Y32.8574 
G01 X-6.6533 Y32.3494 
G01 X-3.4276 Y32.3494 
G01 X-3.4124 Y32.4061 
G01 X-3.3603 Y32.4965 
G01 X-3.2865 Y32.5703 
G01 X-3.1961 Y32.6224 
G01 X-3.0954 Y32.6494 
G01 X-1.9846 Y32.6494 
G01 X-1.8839 Y32.6224 
G01 X-1.8694 Y32.6141 
G01 X-1.8694 Y46.1024 
G01 X-1.9261 Y46.1176 
G01 X-1.9406 Y46.1259 
G01 X-1.9406 Y39.3110 
G01 X-1.9636 Y39.1951 
G01 X-2.0088 Y39.0861 
G01 X-2.0744 Y38.9879 
G01 X-2.1579 Y38.9044 
G01 X-2.2561 Y38.8388 
G01 X-2.3651 Y38.7936 
G01 X-2.4810 Y38.7706 
G01 X-6.6533 Y38.7706 
G01 X-7.1613 Y38.2626 
G01 X-8.0787 Y38.2626 
G01 X-8.7274 Y38.9113 
G01 X-8.7274 Y39.8287 
G01 X-8.0787 Y40.4774 
G01 X-7.1613 Y40.4774 
G01 X-6.6533 Y39.9694 
G01 X-3.1394 Y39.9694 
G01 X-3.1394 Y47.3724 
G01 X-3.1961 Y47.3876 
G01 X-3.2106 Y47.3959 
G01 X-3.2106 Y41.8510 
G01 X-3.2336 Y41.7351 
G01 X-3.2788 Y41.6261 
G01 X-3.3444 Y41.5279 
G01 X-3.4279 Y41.4444 
G01 X-3.5261 Y41.3788 
G01 X-3.6351 Y41.3336 
G01 X-3.7510 Y41.3106 
G01 X-6.6533 Y41.3106 
G01 X-7.1613 Y40.8026 
G01 X-8.0787 Y40.8026 
G01 X-8.7274 Y41.4513 
G01 X-8.7274 Y42.3687 
G01 X-8.0787 Y43.0174 
G01 X-7.1613 Y43.0174 
G01 X-6.6533 Y42.5094 
G01 X-4.4094 Y42.5094 
G01 X-4.4094 Y48.6424 
G01 X-4.4661 Y48.6576 
G01 X-4.4806 Y48.6659 
G01 X-4.4806 Y44.3910 
G01 X-4.5036 Y44.2751 
G01 X-4.5488 Y44.1661 
G01 X-4.6144 Y44.0679 
G01 X-4.6979 Y43.9844 
G01 X-4.7961 Y43.9188 
G01 X-4.9051 Y43.8736 
G01 X-5.0210 Y43.8506 
G01 X-6.6533 Y43.8506 
G01 X-7.1613 Y43.3426 
G01 X-8.0787 Y43.3426 
G01 X-8.7274 Y43.9913 
G01 X-8.7274 Y44.9087 
G01 X-8.0787 Y45.5574 
G01 X-7.1613 Y45.5574 
G01 X-6.6533 Y45.0494 
G01 X-5.6794 Y45.0494 
G01 X-5.6794 Y51.1751 
G01 X-5.9749 Y51.4706 
G01 X-9.5606 Y51.4706 
G01 X-9.5606 Y46.9310 
G01 X-9.5836 Y46.8151 
G01 X-9.6288 Y46.7061 
G01 X-9.6944 Y46.6079 
G01 X-9.7779 Y46.5244 
G01 X-9.8761 Y46.4588 
G01 X-9.9851 Y46.4136 
G01 X-10.1010 Y46.3906 
G01 X-13.3706 Y46.3906 
G01 X-13.3706 Y45.3141 
G01 X-13.3561 Y45.3224 
G01 X-13.2554 Y45.3494 
G01 X-12.1446 Y45.3494 
G01 X-12.0439 Y45.3224 
G01 X-11.9535 Y45.2703 
G01 X-11.8797 Y45.1965 
G01 X-11.8276 Y45.1061 
G01 X-11.8006 Y45.0054 
G01 X-11.8006 Y43.8946 
G01 X-11.8276 Y43.7939 
G01 X-11.8797 Y43.7035 
G01 X-11.9535 Y43.6297 
G01 X-12.0439 Y43.5776 
G01 X-12.1006 Y43.5624 
G01 X-12.1006 Y42.5094 
G01 X-11.1267 Y42.5094 
G01 X-10.6187 Y43.0174 
G01 X-9.7013 Y43.0174 
G01 X-9.0526 Y42.3687 
G01 X-9.0526 Y41.4513 
G01 X-9.7013 Y40.8026 
G01 X-10.6187 Y40.8026 
G01 X-11.1267 Y41.3106 
G01 X-12.7590 Y41.3106 
G01 X-12.8749 Y41.3336 
G01 X-12.9839 Y41.3788 
G01 X-13.0821 Y41.4444 
G01 X-13.1656 Y41.5279 
G01 X-13.2312 Y41.6261 
G01 X-13.2764 Y41.7351 
G01 X-13.2994 Y41.8510 
G01 X-13.2994 Y43.5624 
G01 X-13.3561 Y43.5776 
G01 X-13.3706 Y43.5859 
G01 X-13.3706 Y40.2341 
G01 X-13.3561 Y40.2424 
G01 X-13.2554 Y40.2694 
G01 X-12.1446 Y40.2694 
G01 X-12.0439 Y40.2424 
G01 X-11.9535 Y40.1903 
G01 X-11.8797 Y40.1165 
G01 X-11.8276 Y40.0261 
G01 X-11.8124 Y39.9694 
G01 X-11.1267 Y39.9694 
G01 X-10.6187 Y40.4774 
G01 X-9.7013 Y40.4774 
G01 X-9.0526 Y39.8287 
G01 X-9.0526 Y38.9113 
G01 X-9.7013 Y38.2626 
G01 X-10.6187 Y38.2626 
G01 X-11.1267 Y38.7706 
G01 X-11.8124 Y38.7706 
G01 X-11.8276 Y38.7139 
G01 X-11.8797 Y38.6235 
G01 X-11.9535 Y38.5497 
G01 X-12.0439 Y38.4976 
G01 X-12.1446 Y38.4706 
G01 X-12.2267 Y38.4706 
G01 X-12.1688 Y38.3839 
G01 X-12.1236 Y38.2749 
G01 X-12.1006 Y38.1590 
G01 X-12.1006 Y32.3494 
G01 X-11.1267 Y32.3494 
G01 X-10.6187 Y32.8574 
G01 X-9.7013 Y32.8574 
G01 X-9.1933 Y32.3494 
G01 X-8.8310 Y32.3494 
G01 X-8.7151 Y32.3264 
G01 X-8.6406 Y32.2955 
G00 Z2.5400 
G00 X-8.0787 Y33.1826 
G01 Z-0.1500 F100.00 
G01 X-8.7274 Y33.8313 F200.00 
G01 X-8.7274 Y34.7487 
G01 X-8.0787 Y35.3974 
G01 X-7.1613 Y35.3974 
G01 X-6.5126 Y34.7487 
G01 X-6.5126 Y33.8313 
G01 X-7.1613 Y33.1826 
G01 X-8.0787 Y33.1826 
G00 Z2.5400 
G00 X-9.0526 Y33.8313 
G01 Z-0.1500 F100.00 
G01 X-9.7013 Y33.1826 F200.00 
G01 X-10.6187 Y33.1826 
G01 X-11.2674 Y33.8313 
G01 X-11.2674 Y34.7487 
G01 X-10.6187 Y35.3974 
G01 X-9.7013 Y35.3974 
G01 X-9.0526 Y34.7487 
G01 X-9.0526 Y33.8313 
G00 Z2.5400 
G00 X-9.0526 Y36.3713 
G01 Z-0.1500 F100.00 
G01 X-9.7013 Y35.7226 F200.00 
G01 X-10.6187 Y35.7226 
G01 X-11.2674 Y36.3713 
G01 X-11.2674 Y37.2887 
G01 X-10.6187 Y37.9374 
G01 X-9.7013 Y37.9374 
G01 X-9.0526 Y37.2887 
G01 X-9.0526 Y36.3713 
G00 Z2.5400 
G00 X-8.7274 Y36.3713 
G01 Z-0.1500 F100.00 
G01 X-8.7274 Y37.2887 F200.00 
G01 X-8.0787 Y37.9374 
G01 X-7.1613 Y37.9374 
G01 X-6.5126 Y37.2887 
G01 X-6.5126 Y36.3713 
G01 X-7.1613 Y35.7226 
G01 X-8.0787 Y35.7226 
G01 X-8.7274 Y36.3713 
G00 Z2.5400 
G00 X-9.0526 Y43.9913 
G01 Z-0.1500 F100.00 
G01 X-9.7013 Y43.3426 F200.00 
G01 X-10.6187 Y43.3426 
G01 X-11.2674 Y43.9913 
G01 X-11.2674 Y44.9087 
G01 X-10.6187 Y45.5574 
G01 X-9.9003 Y45.5574 
G01 X-8.5194 Y46.9383 
G01 X-8.5194 Y47.5454 
G01 X-8.4924 Y47.6461 
G01 X-8.4403 Y47.7365 
G01 X-8.3665 Y47.8103 
G01 X-8.2761 Y47.8624 
G01 X-8.1754 Y47.8894 
G01 X-7.0646 Y47.8894 
G01 X-6.9639 Y47.8624 
G01 X-6.8735 Y47.8103 
G01 X-6.7997 Y47.7365 
G01 X-6.7476 Y47.6461 
G01 X-6.7206 Y47.5454 
G01 X-6.7206 Y46.4346 
G01 X-6.7476 Y46.3339 
G01 X-6.7997 Y46.2435 
G01 X-6.8735 Y46.1697 
G01 X-6.9639 Y46.1176 
G01 X-7.0646 Y46.0906 
G01 X-7.6717 Y46.0906 
G01 X-9.0526 Y44.7097 
G01 X-9.0526 Y43.9913 
G00 Z2.5400 
G00 X-17.7012 Y37.6360 
G01 Z-0.1500 F100.00 
G01 X-17.5836 Y37.5184 F200.00 
G01 X-17.4859 Y37.3838 
G01 X-17.4104 Y37.2356 
G01 X-17.3590 Y37.0774 
G01 X-17.3330 Y36.9132 
G01 X-17.3330 Y36.7468 
G01 X-17.3590 Y36.5826 
G01 X-17.4104 Y36.4244 
G01 X-17.4859 Y36.2762 
G01 X-17.5836 Y36.1416 
G01 X-17.7012 Y36.0240 
G01 X-17.8358 Y35.9263 
G01 X-17.9840 Y35.8508 
G01 X-18.1422 Y35.7994 
G01 X-18.3064 Y35.7734 
G01 X-19.7936 Y35.7734 
G01 X-19.9578 Y35.7994 
G01 X-20.1160 Y35.8508 
G01 X-20.2642 Y35.9263 
G01 X-20.3988 Y36.0240 
G01 X-20.5164 Y36.1416 
G01 X-20.6141 Y36.2762 
G01 X-20.6896 Y36.4244 
G01 X-20.7410 Y36.5826 
G01 X-20.7670 Y36.7468 
G01 X-20.7670 Y36.9132 
G01 X-20.7410 Y37.0774 
G01 X-20.6896 Y37.2356 
G01 X-20.6141 Y37.3838 
G01 X-20.5164 Y37.5184 
G01 X-20.3988 Y37.6360 
G01 X-20.2642 Y37.7337 
G01 X-20.1160 Y37.8092 
G01 X-19.9578 Y37.8606 
G01 X-19.7936 Y37.8866 
G01 X-18.3064 Y37.8866 
G01 X-18.1422 Y37.8606 
G01 X-17.9840 Y37.8092 
G01 X-17.8358 Y37.7337 
G01 X-17.7012 Y37.6360 
G00 Z2.5400 
G00 X-17.7012 Y35.0960 
G01 Z-0.1500 F100.00 
G01 X-17.5836 Y34.9784 F200.00 
G01 X-17.4859 Y34.8438 
G01 X-17.4104 Y34.6956 
G01 X-17.3590 Y34.5374 
G01 X-17.3330 Y34.3732 
G01 X-17.3330 Y34.2068 
G01 X-17.3590 Y34.0426 
G01 X-17.4104 Y33.8844 
G01 X-17.4859 Y33.7362 
G01 X-17.5836 Y33.6016 
G01 X-17.7012 Y33.4840 
G01 X-17.8358 Y33.3863 
G01 X-17.9840 Y33.3108 
G01 X-18.1422 Y33.2594 
G01 X-18.3064 Y33.2334 
G01 X-19.7936 Y33.2334 
G01 X-19.9578 Y33.2594 
G01 X-20.1160 Y33.3108 
G01 X-20.2642 Y33.3863 
G01 X-20.3988 Y33.4840 
G01 X-20.5164 Y33.6016 
G01 X-20.6141 Y33.7362 
G01 X-20.6896 Y33.8844 
G01 X-20.7410 Y34.0426 
G01 X-20.7670 Y34.2068 
G01 X-20.7670 Y34.3732 
G01 X-20.7410 Y34.5374 
G01 X-20.6896 Y34.6956 
G01 X-20.6141 Y34.8438 
G01 X-20.5164 Y34.9784 
G01 X-20.3988 Y35.0960 
G01 X-20.2642 Y35.1937 
G01 X-20.1160 Y35.2692 
G01 X-19.9578 Y35.3206 
G01 X-19.7936 Y35.3466 
G01 X-18.3064 Y35.3466 
G01 X-18.1422 Y35.3206 
G01 X-17.9840 Y35.2692 
G01 X-17.8358 Y35.1937 
G01 X-17.7012 Y35.0960 
G00 Z2.5400 
G00 X-17.7012 Y30.0160 
G01 Z-0.1500 F100.00 
G01 X-17.5836 Y29.8984 F200.00 
G01 X-17.5190 Y29.8094 
G01 X-17.3976 Y29.8094 
G01 X-17.3824 Y29.8661 
G01 X-17.3303 Y29.9565 
G01 X-17.2565 Y30.0303 
G01 X-17.1661 Y30.0824 
G01 X-17.0654 Y30.1094 
G01 X-15.9546 Y30.1094 
G01 X-15.8539 Y30.0824 
G01 X-15.7635 Y30.0303 
G01 X-15.6897 Y29.9565 
G01 X-15.6376 Y29.8661 
G01 X-15.6106 Y29.7654 
G01 X-15.6106 Y28.6546 
G01 X-15.6376 Y28.5539 
G01 X-15.6897 Y28.4635 
G01 X-15.7635 Y28.3897 
G01 X-15.8539 Y28.3376 
G01 X-15.9546 Y28.3106 
G01 X-17.0654 Y28.3106 
G01 X-17.1661 Y28.3376 
G01 X-17.2565 Y28.3897 
G01 X-17.3303 Y28.4635 
G01 X-17.3824 Y28.5539 
G01 X-17.3976 Y28.6106 
G01 X-17.5190 Y28.6106 
G01 X-17.5836 Y28.5216 
G01 X-17.7012 Y28.4040 
G01 X-17.8358 Y28.3063 
G01 X-17.9840 Y28.2308 
G01 X-18.1422 Y28.1794 
G01 X-18.3064 Y28.1534 
G01 X-19.7936 Y28.1534 
G01 X-19.9578 Y28.1794 
G01 X-20.1160 Y28.2308 
G01 X-20.2642 Y28.3063 
G01 X-20.3988 Y28.4040 
G01 X-20.5164 Y28.5216 
G01 X-20.6141 Y28.6562 
G01 X-20.6896 Y28.8044 
G01 X-20.7410 Y28.9626 
G01 X-20.7670 Y29.1268 
G01 X-20.7670 Y29.2932 
G01 X-20.7410 Y29.4574 
G01 X-20.6896 Y29.6156 
G01 X-20.6141 Y29.7638 
G01 X-20.5164 Y29.8984 
G01 X-20.3988 Y30.0160 
G01 X-20.2642 Y30.1137 
G01 X-20.1160 Y30.1892 
G01 X-19.9578 Y30.2406 
G01 X-19.7936 Y30.2666 
G01 X-18.3064 Y30.2666 
G01 X-18.1422 Y30.2406 
G01 X-17.9840 Y30.1892 
G01 X-17.8358 Y30.1137 
G01 X-17.7012 Y30.0160 
G00 Z2.5400 
G00 X-17.9685 Y22.7453 
G01 Z-0.1500 F100.00 
G01 X-17.8947 Y22.6715 F200.00 
G01 X-17.8426 Y22.5811 
G01 X-17.8156 Y22.4804 
G01 X-17.8156 Y20.6996 
G01 X-17.8426 Y20.5989 
G01 X-17.8947 Y20.5085 
G01 X-17.9685 Y20.4347 
G01 X-18.0589 Y20.3826 
G01 X-18.1596 Y20.3556 
G01 X-19.9404 Y20.3556 
G01 X-20.0411 Y20.3826 
G01 X-20.1315 Y20.4347 
G01 X-20.2053 Y20.5085 
G01 X-20.2574 Y20.5989 
G01 X-20.2844 Y20.6996 
G01 X-20.2844 Y22.4804 
G01 X-20.2574 Y22.5811 
G01 X-20.2053 Y22.6715 
G01 X-20.1315 Y22.7453 
G01 X-20.0411 Y22.7974 
G01 X-19.9404 Y22.8244 
G01 X-18.1596 Y22.8244 
G01 X-18.0589 Y22.7974 
G01 X-17.9685 Y22.7453 
G00 Z2.5400 
G00 X-18.2458 Y19.9916 
G01 Z-0.1500 F100.00 
G01 X-18.1084 Y19.8542 F200.00 
G01 X-17.9942 Y19.6970 
G01 X-17.9060 Y19.5239 
G01 X-17.8460 Y19.3391 
G01 X-17.8156 Y19.1472 
G01 X-17.8156 Y18.9528 
G01 X-17.8460 Y18.7609 
G01 X-17.9060 Y18.5761 
G01 X-17.9942 Y18.4030 
G01 X-18.1084 Y18.2458 
G01 X-18.2458 Y18.1084 
G01 X-18.4030 Y17.9942 
G01 X-18.5761 Y17.9060 
G01 X-18.7609 Y17.8460 
G01 X-18.9528 Y17.8156 
G01 X-19.1472 Y17.8156 
G01 X-19.3391 Y17.8460 
G01 X-19.5239 Y17.9060 
G01 X-19.6970 Y17.9942 
G01 X-19.8542 Y18.1084 
G01 X-19.9916 Y18.2458 
G01 X-20.1058 Y18.4030 
G01 X-20.1940 Y18.5761 
G01 X-20.2540 Y18.7609 
G01 X-20.2844 Y18.9528 
G01 X-20.2844 Y19.1472 
G01 X-20.2540 Y19.3391 
G01 X-20.1940 Y19.5239 
G01 X-20.1058 Y19.6970 
G01 X-19.9916 Y19.8542 
G01 X-19.8542 Y19.9916 
G01 X-19.6970 Y20.1058 
G01 X-19.5239 Y20.1940 
G01 X-19.3391 Y20.2540 
G01 X-19.1472 Y20.2844 
G01 X-18.9528 Y20.2844 
G01 X-18.7609 Y20.2540 
G01 X-18.5761 Y20.1940 
G01 X-18.4030 Y20.1058 
G01 X-18.2458 Y19.9916 
G00 Z2.5400 
G00 X-18.2458 Y17.4516 
G01 Z-0.1500 F100.00 
G01 X-18.1084 Y17.3142 F200.00 
G01 X-17.9942 Y17.1570 
G01 X-17.9060 Y16.9839 
G01 X-17.8460 Y16.7991 
G01 X-17.8156 Y16.6072 
G01 X-17.8156 Y16.4128 
G01 X-17.8460 Y16.2209 
G01 X-17.9060 Y16.0361 
G01 X-17.9942 Y15.8630 
G01 X-18.1084 Y15.7058 
G01 X-18.2458 Y15.5684 
G01 X-18.4030 Y15.4542 
G01 X-18.5761 Y15.3660 
G01 X-18.7609 Y15.3060 
G01 X-18.9528 Y15.2756 
G01 X-19.1472 Y15.2756 
G01 X-19.3391 Y15.3060 
G01 X-19.5239 Y15.3660 
G01 X-19.6970 Y15.4542 
G01 X-19.8542 Y15.5684 
G01 X-19.9916 Y15.7058 
G01 X-20.1058 Y15.8630 
G01 X-20.1940 Y16.0361 
G01 X-20.2540 Y16.2209 
G01 X-20.2844 Y16.4128 
G01 X-20.2844 Y16.6072 
G01 X-20.2540 Y16.7991 
G01 X-20.1940 Y16.9839 
G01 X-20.1058 Y17.1570 
G01 X-19.9916 Y17.3142 
G01 X-19.8542 Y17.4516 
G01 X-19.6970 Y17.5658 
G01 X-19.5239 Y17.6540 
G01 X-19.3391 Y17.7140 
G01 X-19.1472 Y17.7444 
G01 X-18.9528 Y17.7444 
G01 X-18.7609 Y17.7140 
G01 X-18.5761 Y17.6540 
G01 X-18.4030 Y17.5658 
G01 X-18.2458 Y17.4516 
G00 Z2.5400 
G00 X-25.8658 Y17.4516 
G01 Z-0.1500 F100.00 
G01 X-25.7284 Y17.3142 F200.00 
G01 X-25.6142 Y17.1570 
G01 X-25.5260 Y16.9839 
G01 X-25.4660 Y16.7991 
G01 X-25.4356 Y16.6072 
G01 X-25.4356 Y16.4128 
G01 X-25.4660 Y16.2209 
G01 X-25.5260 Y16.0361 
G01 X-25.6142 Y15.8630 
G01 X-25.7284 Y15.7058 
G01 X-25.8658 Y15.5684 
G01 X-26.0230 Y15.4542 
G01 X-26.1961 Y15.3660 
G01 X-26.3809 Y15.3060 
G01 X-26.5728 Y15.2756 
G01 X-26.7672 Y15.2756 
G01 X-26.9591 Y15.3060 
G01 X-27.1439 Y15.3660 
G01 X-27.3170 Y15.4542 
G01 X-27.4742 Y15.5684 
G01 X-27.6116 Y15.7058 
G01 X-27.7258 Y15.8630 
G01 X-27.7500 Y15.9106 
G01 X-31.8090 Y15.9106 
G01 X-31.9248 Y15.9336 
G01 X-32.0339 Y15.9788 
G01 X-32.1321 Y16.0444 
G01 X-32.2156 Y16.1279 
G01 X-32.2812 Y16.2261 
G01 X-32.3264 Y16.3351 
G01 X-32.3494 Y16.4510 
G01 X-32.3494 Y33.0790 
G01 X-32.3264 Y33.1949 
G01 X-32.2812 Y33.3039 
G01 X-32.2156 Y33.4021 
G01 X-32.1321 Y33.4856 
G01 X-30.8621 Y34.7556 
G01 X-30.7639 Y34.8212 
G01 X-30.6548 Y34.8664 
G01 X-30.5390 Y34.8894 
G01 X-28.2010 Y34.8894 
G01 X-28.1364 Y34.9784 
G01 X-28.0188 Y35.0960 
G01 X-27.8842 Y35.1937 
G01 X-27.7360 Y35.2692 
G01 X-27.5778 Y35.3206 
G01 X-27.4136 Y35.3466 
G01 X-25.9264 Y35.3466 
G01 X-25.7622 Y35.3206 
G01 X-25.6040 Y35.2692 
G01 X-25.4558 Y35.1937 
G01 X-25.3212 Y35.0960 
G01 X-25.2036 Y34.9784 
G01 X-25.1059 Y34.8438 
G01 X-25.0304 Y34.6956 
G01 X-24.9790 Y34.5374 
G01 X-24.9530 Y34.3732 
G01 X-24.9530 Y34.2068 
G01 X-24.9790 Y34.0426 
G01 X-25.0304 Y33.8844 
G01 X-25.1059 Y33.7362 
G01 X-25.2036 Y33.6016 
G01 X-25.3212 Y33.4840 
G01 X-25.4558 Y33.3863 
G01 X-25.6040 Y33.3108 
G01 X-25.7622 Y33.2594 
G01 X-25.9264 Y33.2334 
G01 X-27.4136 Y33.2334 
G01 X-27.5778 Y33.2594 
G01 X-27.7360 Y33.3108 
G01 X-27.8842 Y33.3863 
G01 X-28.0188 Y33.4840 
G01 X-28.1364 Y33.6016 
G01 X-28.2010 Y33.6906 
G01 X-30.2317 Y33.6906 
G01 X-31.1506 Y32.7717 
G01 X-31.1506 Y17.1094 
G01 X-27.7500 Y17.1094 
G01 X-27.7258 Y17.1570 
G01 X-27.6116 Y17.3142 
G01 X-27.4742 Y17.4516 
G01 X-27.3170 Y17.5658 
G01 X-27.1439 Y17.6540 
G01 X-26.9591 Y17.7140 
G01 X-26.7672 Y17.7444 
G01 X-26.5728 Y17.7444 
G01 X-26.3809 Y17.7140 
G01 X-26.1961 Y17.6540 
G01 X-26.0230 Y17.5658 
G01 X-25.8658 Y17.4516 
G00 Z2.5400 
G00 X-25.8658 Y14.9116 
G01 Z-0.1500 F100.00 
G01 X-25.7284 Y14.7742 F200.00 
G01 X-25.6142 Y14.6170 
G01 X-25.5260 Y14.4439 
G01 X-25.4660 Y14.2591 
G01 X-25.4356 Y14.0672 
G01 X-25.4356 Y13.8728 
G01 X-25.4660 Y13.6809 
G01 X-25.5260 Y13.4961 
G01 X-25.6142 Y13.3230 
G01 X-25.7284 Y13.1658 
G01 X-25.8658 Y13.0284 
G01 X-26.0230 Y12.9142 
G01 X-26.1961 Y12.8260 
G01 X-26.3809 Y12.7660 
G01 X-26.5728 Y12.7356 
G01 X-26.7672 Y12.7356 
G01 X-26.9591 Y12.7660 
G01 X-27.1439 Y12.8260 
G01 X-27.3170 Y12.9142 
G01 X-27.4742 Y13.0284 
G01 X-27.6116 Y13.1658 
G01 X-27.7258 Y13.3230 
G01 X-27.7500 Y13.3706 
G01 X-33.0790 Y13.3706 
G01 X-33.1949 Y13.3936 
G01 X-33.3039 Y13.4388 
G01 X-33.4021 Y13.5044 
G01 X-33.4856 Y13.5879 
G01 X-33.5512 Y13.6861 
G01 X-33.5964 Y13.7951 
G01 X-33.6194 Y13.9110 
G01 X-33.6194 Y28.3459 
G01 X-33.6339 Y28.3376 
G01 X-33.7346 Y28.3106 
G01 X-34.8454 Y28.3106 
G01 X-34.9461 Y28.3376 
G01 X-35.0365 Y28.3897 
G01 X-35.1103 Y28.4635 
G01 X-35.1624 Y28.5539 
G01 X-35.1894 Y28.6546 
G01 X-35.1894 Y29.7654 
G01 X-35.1624 Y29.8661 
G01 X-35.1103 Y29.9565 
G01 X-35.0365 Y30.0303 
G01 X-34.9461 Y30.0824 
G01 X-34.8894 Y30.0976 
G01 X-34.8894 Y43.2390 
G01 X-34.8664 Y43.3548 
G01 X-34.8212 Y43.4639 
G01 X-34.7556 Y43.5621 
G01 X-34.6721 Y43.6456 
G01 X-33.4021 Y44.9156 
G01 X-33.3039 Y44.9812 
G01 X-33.1949 Y45.0264 
G01 X-33.0790 Y45.0494 
G01 X-28.2010 Y45.0494 
G01 X-28.1364 Y45.1384 
G01 X-28.0188 Y45.2560 
G01 X-27.8842 Y45.3537 
G01 X-27.7360 Y45.4292 
G01 X-27.5778 Y45.4806 
G01 X-27.4136 Y45.5066 
G01 X-27.2694 Y45.5066 
G01 X-27.2694 Y51.1751 
G01 X-27.7266 Y51.6323 
G01 X-27.7266 Y52.5077 
G01 X-27.1077 Y53.1266 
G01 X-26.2323 Y53.1266 
G01 X-25.6134 Y52.5077 
G01 X-25.6134 Y51.6323 
G01 X-26.0706 Y51.1751 
G01 X-26.0706 Y45.5066 
G01 X-25.9264 Y45.5066 
G01 X-25.7622 Y45.4806 
G01 X-25.6040 Y45.4292 
G01 X-25.4558 Y45.3537 
G01 X-25.3212 Y45.2560 
G01 X-25.2036 Y45.1384 
G01 X-25.1059 Y45.0038 
G01 X-25.0304 Y44.8556 
G01 X-24.9790 Y44.6974 
G01 X-24.9530 Y44.5332 
G01 X-24.9530 Y44.3668 
G01 X-24.9790 Y44.2026 
G01 X-25.0304 Y44.0444 
G01 X-25.1059 Y43.8962 
G01 X-25.2036 Y43.7616 
G01 X-25.3212 Y43.6440 
G01 X-25.4558 Y43.5463 
G01 X-25.6040 Y43.4708 
G01 X-25.7622 Y43.4194 
G01 X-25.9264 Y43.3934 
G01 X-27.4136 Y43.3934 
G01 X-27.5778 Y43.4194 
G01 X-27.7360 Y43.4708 
G01 X-27.8842 Y43.5463 
G01 X-28.0188 Y43.6440 
G01 X-28.1364 Y43.7616 
G01 X-28.2010 Y43.8506 
G01 X-32.7717 Y43.8506 
G01 X-33.6906 Y42.9317 
G01 X-33.6906 Y30.0976 
G01 X-33.6339 Y30.0824 
G01 X-33.6194 Y30.0741 
G01 X-33.6194 Y38.1590 
G01 X-33.5964 Y38.2749 
G01 X-33.5512 Y38.3839 
G01 X-33.4856 Y38.4821 
G01 X-33.4021 Y38.5656 
G01 X-32.1321 Y39.8356 
G01 X-32.0339 Y39.9012 
G01 X-31.9248 Y39.9464 
G01 X-31.8090 Y39.9694 
G01 X-28.2010 Y39.9694 
G01 X-28.1364 Y40.0584 
G01 X-28.0188 Y40.1760 
G01 X-27.8842 Y40.2737 
G01 X-27.7360 Y40.3492 
G01 X-27.5778 Y40.4006 
G01 X-27.4136 Y40.4266 
G01 X-25.9264 Y40.4266 
G01 X-25.7622 Y40.4006 
G01 X-25.6040 Y40.3492 
G01 X-25.4558 Y40.2737 
G01 X-25.3212 Y40.1760 
G01 X-25.2036 Y40.0584 
G01 X-25.1059 Y39.9238 
G01 X-25.0304 Y39.7756 
G01 X-24.9790 Y39.6174 
G01 X-24.9530 Y39.4532 
G01 X-24.9530 Y39.2868 
G01 X-24.9790 Y39.1226 
G01 X-25.0304 Y38.9644 
G01 X-25.1059 Y38.8162 
G01 X-25.2036 Y38.6816 
G01 X-25.3212 Y38.5640 
G01 X-25.4558 Y38.4663 
G01 X-25.6040 Y38.3908 
G01 X-25.7622 Y38.3394 
G01 X-25.9264 Y38.3134 
G01 X-27.4136 Y38.3134 
G01 X-27.5778 Y38.3394 
G01 X-27.7360 Y38.3908 
G01 X-27.8842 Y38.4663 
G01 X-28.0188 Y38.5640 
G01 X-28.1364 Y38.6816 
G01 X-28.2010 Y38.7706 
G01 X-31.5017 Y38.7706 
G01 X-32.4206 Y37.8517 
G01 X-32.4206 Y14.5694 
G01 X-27.7500 Y14.5694 
G01 X-27.7258 Y14.6170 
G01 X-27.6116 Y14.7742 
G01 X-27.4742 Y14.9116 
G01 X-27.3170 Y15.0258 
G01 X-27.1439 Y15.1140 
G01 X-26.9591 Y15.1740 
G01 X-26.7672 Y15.2044 
G01 X-26.5728 Y15.2044 
G01 X-26.3809 Y15.1740 
G01 X-26.1961 Y15.1140 
G01 X-26.0230 Y15.0258 
G01 X-25.8658 Y14.9116 
G00 Z2.5400 
G00 X-25.9264 Y25.6134 
G01 Z-0.1500 F100.00 
G01 X-27.4136 Y25.6134 F200.00 
G01 X-27.5778 Y25.6394 
G01 X-27.7360 Y25.6908 
G01 X-27.8842 Y25.7663 
G01 X-28.0188 Y25.8640 
G01 X-28.1364 Y25.9816 
G01 X-28.2341 Y26.1162 
G01 X-28.3096 Y26.2644 
G01 X-28.3610 Y26.4226 
G01 X-28.3870 Y26.5868 
G01 X-28.3870 Y26.7532 
G01 X-28.3610 Y26.9174 
G01 X-28.3096 Y27.0756 
G01 X-28.2341 Y27.2238 
G01 X-28.1364 Y27.3584 
G01 X-28.0188 Y27.4760 
G01 X-27.8842 Y27.5737 
G01 X-27.7360 Y27.6492 
G01 X-27.5778 Y27.7006 
G01 X-27.4136 Y27.7266 
G01 X-25.9264 Y27.7266 
G01 X-25.7622 Y27.7006 
G01 X-25.6040 Y27.6492 
G01 X-25.4558 Y27.5737 
G01 X-25.3212 Y27.4760 
G01 X-25.2036 Y27.3584 
G01 X-25.1059 Y27.2238 
G01 X-25.0304 Y27.0756 
G01 X-24.9790 Y26.9174 
G01 X-24.9530 Y26.7532 
G01 X-24.9530 Y26.5868 
G01 X-24.9790 Y26.4226 
G01 X-25.0304 Y26.2644 
G01 X-25.1059 Y26.1162 
G01 X-25.2036 Y25.9816 
G01 X-25.3212 Y25.8640 
G01 X-25.4558 Y25.7663 
G01 X-25.6040 Y25.6908 
G01 X-25.7622 Y25.6394 
G01 X-25.9264 Y25.6134 
G00 Z2.5400 
G00 X-25.9264 Y40.8534 
G01 Z-0.1500 F100.00 
G01 X-27.4136 Y40.8534 F200.00 
G01 X-27.5778 Y40.8794 
G01 X-27.7360 Y40.9308 
G01 X-27.8842 Y41.0063 
G01 X-28.0188 Y41.1040 
G01 X-28.1364 Y41.2216 
G01 X-28.2341 Y41.3562 
G01 X-28.3096 Y41.5044 
G01 X-28.3610 Y41.6626 
G01 X-28.3870 Y41.8268 
G01 X-28.3870 Y41.9932 
G01 X-28.3610 Y42.1574 
G01 X-28.3096 Y42.3156 
G01 X-28.2341 Y42.4638 
G01 X-28.1364 Y42.5984 
G01 X-28.0188 Y42.7160 
G01 X-27.8842 Y42.8137 
G01 X-27.7360 Y42.8892 
G01 X-27.5778 Y42.9406 
G01 X-27.4136 Y42.9666 
G01 X-25.9264 Y42.9666 
G01 X-25.7622 Y42.9406 
G01 X-25.6040 Y42.8892 
G01 X-25.4558 Y42.8137 
G01 X-25.3212 Y42.7160 
G01 X-25.2036 Y42.5984 
G01 X-25.1390 Y42.5094 
G01 X-23.4594 Y42.5094 
G01 X-23.4594 Y48.6424 
G01 X-23.5161 Y48.6576 
G01 X-23.6065 Y48.7097 
G01 X-23.6803 Y48.7835 
G01 X-23.7324 Y48.8739 
G01 X-23.7594 Y48.9746 
G01 X-23.7594 Y50.0854 
G01 X-23.7324 Y50.1861 
G01 X-23.6803 Y50.2765 
G01 X-23.6065 Y50.3503 
G01 X-23.5161 Y50.4024 
G01 X-23.4154 Y50.4294 
G01 X-22.3046 Y50.4294 
G01 X-22.2039 Y50.4024 
G01 X-22.1135 Y50.3503 
G01 X-22.0397 Y50.2765 
G01 X-21.9876 Y50.1861 
G01 X-21.9606 Y50.0854 
G01 X-21.9606 Y48.9746 
G01 X-21.9876 Y48.8739 
G01 X-22.0397 Y48.7835 
G01 X-22.1135 Y48.7097 
G01 X-22.2039 Y48.6576 
G01 X-22.2606 Y48.6424 
G01 X-22.2606 Y41.8510 
G01 X-22.2836 Y41.7351 
G01 X-22.3288 Y41.6261 
G01 X-22.3944 Y41.5279 
G01 X-22.4779 Y41.4444 
G01 X-22.5761 Y41.3788 
G01 X-22.6851 Y41.3336 
G01 X-22.8010 Y41.3106 
G01 X-25.1390 Y41.3106 
G01 X-25.2036 Y41.2216 
G01 X-25.3212 Y41.1040 
G01 X-25.4558 Y41.0063 
G01 X-25.6040 Y40.9308 
G01 X-25.7622 Y40.8794 
G01 X-25.9264 Y40.8534 
G00 Z2.5400 
G00 X-7.0542 Y10.9656 
G01 Z-0.1500 F100.00 
G01 X-7.1556 Y10.8642 F200.00 
G01 X-7.2749 Y10.7845 
G01 X-7.4075 Y10.7295 
G01 X-7.5483 Y10.7016 
G01 X-24.2017 Y10.7016 
G01 X-24.3425 Y10.7295 
G01 X-24.4750 Y10.7845 
G01 X-24.5944 Y10.8642 
G01 X-24.6958 Y10.9656 
G01 X-24.7755 Y11.0849 
G01 X-24.8304 Y11.2175 
G01 X-24.8584 Y11.3582 
G01 X-24.8584 Y23.4016 
G01 X-27.2116 Y23.4016 
G01 X-27.2116 Y22.8443 
G01 X-27.1934 Y22.8536 
G01 X-26.9893 Y22.9199 
G01 X-26.7773 Y22.9534 
G01 X-26.5627 Y22.9534 
G01 X-26.3507 Y22.9199 
G01 X-26.1466 Y22.8536 
G01 X-25.9554 Y22.7561 
G01 X-25.7818 Y22.6300 
G01 X-25.6300 Y22.4782 
G01 X-25.5039 Y22.3046 
G01 X-25.4064 Y22.1134 
G01 X-25.3401 Y21.9093 
G01 X-25.3066 Y21.6973 
G01 X-25.3066 Y21.4827 
G01 X-25.3401 Y21.2707 
G01 X-25.4064 Y21.0666 
G01 X-25.5039 Y20.8754 
G01 X-25.6300 Y20.7018 
G01 X-25.7818 Y20.5500 
G01 X-25.9554 Y20.4239 
G01 X-26.1466 Y20.3264 
G01 X-26.1665 Y20.3200 
G01 X-26.1466 Y20.3136 
G01 X-25.9554 Y20.2161 
G01 X-25.7818 Y20.0900 
G01 X-25.6300 Y19.9382 
G01 X-25.5039 Y19.7646 
G01 X-25.4064 Y19.5734 
G01 X-25.3401 Y19.3693 
G01 X-25.3066 Y19.1573 
G01 X-25.3066 Y18.9427 
G01 X-25.3401 Y18.7307 
G01 X-25.4064 Y18.5266 
G01 X-25.5039 Y18.3354 
G01 X-25.6300 Y18.1618 
G01 X-25.7818 Y18.0100 
G01 X-25.9554 Y17.8839 
G01 X-26.1466 Y17.7864 
G01 X-26.1665 Y17.7800 
G01 X-26.1466 Y17.7736 
G01 X-25.9554 Y17.6761 
G01 X-25.7818 Y17.5500 
G01 X-25.6300 Y17.3982 
G01 X-25.5039 Y17.2246 
G01 X-25.4064 Y17.0334 
G01 X-25.3401 Y16.8293 
G01 X-25.3066 Y16.6173 
G01 X-25.3066 Y16.4027 
G01 X-25.3401 Y16.1907 
G01 X-25.4064 Y15.9866 
G01 X-25.5039 Y15.7954 
G01 X-25.6300 Y15.6218 
G01 X-25.7818 Y15.4700 
G01 X-25.9554 Y15.3439 
G01 X-26.1466 Y15.2464 
G01 X-26.1665 Y15.2400 
G01 X-26.1466 Y15.2336 
G01 X-25.9554 Y15.1361 
G01 X-25.7818 Y15.0100 
G01 X-25.6300 Y14.8582 
G01 X-25.5039 Y14.6846 
G01 X-25.4064 Y14.4934 
G01 X-25.3401 Y14.2893 
G01 X-25.3066 Y14.0773 
G01 X-25.3066 Y13.8627 
G01 X-25.3401 Y13.6507 
G01 X-25.4064 Y13.4466 
G01 X-25.5039 Y13.2554 
G01 X-25.6300 Y13.0818 
G01 X-25.7818 Y12.9300 
G01 X-25.9554 Y12.8039 
G01 X-26.1466 Y12.7064 
G01 X-26.3507 Y12.6401 
G01 X-26.5627 Y12.6066 
G01 X-26.7773 Y12.6066 
G01 X-26.9893 Y12.6401 
G01 X-27.1934 Y12.7064 
G01 X-27.3846 Y12.8039 
G01 X-27.5582 Y12.9300 
G01 X-27.7100 Y13.0818 
G01 X-27.8261 Y13.2416 
G01 X-33.0917 Y13.2416 
G01 X-33.2325 Y13.2695 
G01 X-33.3650 Y13.3245 
G01 X-33.4844 Y13.4042 
G01 X-33.5858 Y13.5056 
G01 X-33.6655 Y13.6250 
G01 X-33.7204 Y13.7575 
G01 X-33.7484 Y13.8983 
G01 X-33.7484 Y28.1816 
G01 X-34.8623 Y28.1816 
G01 X-34.9959 Y28.2173 
G01 X-35.1157 Y28.2865 
G01 X-35.2135 Y28.3843 
G01 X-35.2826 Y28.5041 
G01 X-35.3184 Y28.6376 
G01 X-35.3184 Y29.7824 
G01 X-35.2826 Y29.9159 
G01 X-35.2135 Y30.0357 
G01 X-35.1157 Y30.1335 
G01 X-35.0184 Y30.1897 
G01 X-35.0184 Y43.2517 
G01 X-34.9905 Y43.3925 
G01 X-34.9355 Y43.5250 
G01 X-34.8558 Y43.6444 
G01 X-34.7544 Y43.7458 
G01 X-33.4844 Y45.0158 
G01 X-33.3650 Y45.0955 
G01 X-33.2325 Y45.1504 
G01 X-33.0917 Y45.1784 
G01 X-28.2667 Y45.1784 
G01 X-28.2348 Y45.2224 
G01 X-28.1028 Y45.3544 
G01 X-27.9518 Y45.4641 
G01 X-27.7855 Y45.5488 
G01 X-27.6080 Y45.6065 
G01 X-27.4237 Y45.6356 
G01 X-27.3984 Y45.6356 
G01 X-27.3984 Y51.1217 
G01 X-27.8556 Y51.5789 
G01 X-27.8556 Y52.5611 
G01 X-27.1611 Y53.2556 
G01 X-26.1789 Y53.2556 
G01 X-25.4844 Y52.5611 
G01 X-25.4844 Y51.5789 
G01 X-25.9416 Y51.1217 
G01 X-25.9416 Y45.6356 
G01 X-25.9163 Y45.6356 
G01 X-25.7320 Y45.6065 
G01 X-25.5545 Y45.5488 
G01 X-25.3882 Y45.4641 
G01 X-25.2372 Y45.3544 
G01 X-25.1052 Y45.2224 
G01 X-24.9955 Y45.0714 
G01 X-24.9108 Y44.9051 
G01 X-24.8531 Y44.7276 
G01 X-24.8240 Y44.5433 
G01 X-24.8240 Y44.3567 
G01 X-24.8531 Y44.1724 
G01 X-24.9108 Y43.9949 
G01 X-24.9955 Y43.8286 
G01 X-25.1052 Y43.6776 
G01 X-25.2372 Y43.5456 
G01 X-25.3882 Y43.4359 
G01 X-25.5545 Y43.3512 
G01 X-25.7320 Y43.2935 
G01 X-25.9163 Y43.2644 
G01 X-27.4237 Y43.2644 
G01 X-27.6080 Y43.2935 
G01 X-27.7855 Y43.3512 
G01 X-27.9518 Y43.4359 
G01 X-28.1028 Y43.5456 
G01 X-28.2348 Y43.6776 
G01 X-28.2667 Y43.7216 
G01 X-32.7183 Y43.7216 
G01 X-33.5616 Y42.8783 
G01 X-33.5616 Y38.5886 
G01 X-33.4844 Y38.6658 
G01 X-32.2144 Y39.9358 
G01 X-32.0950 Y40.0155 
G01 X-31.9625 Y40.0705 
G01 X-31.8217 Y40.0984 
G01 X-28.2667 Y40.0984 
G01 X-28.2348 Y40.1424 
G01 X-28.1028 Y40.2744 
G01 X-27.9518 Y40.3841 
G01 X-27.7855 Y40.4688 
G01 X-27.6080 Y40.5264 
G01 X-27.4237 Y40.5556 
G01 X-25.9163 Y40.5556 
G01 X-25.7320 Y40.5264 
G01 X-25.5545 Y40.4688 
G01 X-25.3882 Y40.3841 
G01 X-25.2372 Y40.2744 
G01 X-25.1052 Y40.1424 
G01 X-24.9955 Y39.9914 
G01 X-24.9108 Y39.8251 
G01 X-24.8531 Y39.6476 
G01 X-24.8240 Y39.4633 
G01 X-24.8240 Y39.2767 
G01 X-24.8531 Y39.0924 
G01 X-24.9108 Y38.9149 
G01 X-24.9955 Y38.7486 
G01 X-25.1052 Y38.5976 
G01 X-25.2372 Y38.4656 
G01 X-25.3882 Y38.3559 
G01 X-25.5545 Y38.2712 
G01 X-25.7320 Y38.2135 
G01 X-25.9163 Y38.1844 
G01 X-27.4237 Y38.1844 
G01 X-27.6080 Y38.2135 
G01 X-27.7855 Y38.2712 
G01 X-27.9518 Y38.3559 
G01 X-28.1028 Y38.4656 
G01 X-28.2348 Y38.5976 
G01 X-28.2667 Y38.6416 
G01 X-31.4483 Y38.6416 
G01 X-32.2916 Y37.7983 
G01 X-32.2916 Y33.5086 
G01 X-32.2144 Y33.5858 
G01 X-30.9444 Y34.8558 
G01 X-30.8250 Y34.9355 
G01 X-30.6925 Y34.9905 
G01 X-30.5517 Y35.0184 
G01 X-28.2667 Y35.0184 
G01 X-28.2348 Y35.0624 
G01 X-28.1028 Y35.1944 
G01 X-27.9518 Y35.3041 
G01 X-27.7855 Y35.3888 
G01 X-27.6080 Y35.4464 
G01 X-27.4237 Y35.4756 
G01 X-25.9163 Y35.4756 
G01 X-25.7320 Y35.4464 
G01 X-25.5545 Y35.3888 
G01 X-25.3882 Y35.3041 
G01 X-25.2372 Y35.1944 
G01 X-25.1052 Y35.0624 
G01 X-24.9955 Y34.9114 
G01 X-24.9108 Y34.7451 
G01 X-24.8531 Y34.5676 
G01 X-24.8240 Y34.3833 
G01 X-24.8240 Y34.1967 
G01 X-24.8531 Y34.0124 
G01 X-24.9108 Y33.8349 
G01 X-24.9955 Y33.6686 
G01 X-25.1052 Y33.5176 
G01 X-25.2372 Y33.3856 
G01 X-25.3882 Y33.2759 
G01 X-25.5545 Y33.1912 
G01 X-25.7320 Y33.1335 
G01 X-25.9163 Y33.1044 
G01 X-27.4237 Y33.1044 
G01 X-27.6080 Y33.1335 
G01 X-27.7855 Y33.1912 
G01 X-27.9518 Y33.2759 
G01 X-28.1028 Y33.3856 
G01 X-28.2348 Y33.5176 
G01 X-28.2667 Y33.5616 
G01 X-30.1783 Y33.5616 
G01 X-31.0216 Y32.7183 
G01 X-31.0216 Y30.9686 
G01 X-29.7758 Y32.2144 
G01 X-29.6744 Y32.3158 
G01 X-29.5550 Y32.3955 
G01 X-29.4225 Y32.4504 
G01 X-29.2817 Y32.4784 
G01 X-28.2667 Y32.4784 
G01 X-28.2348 Y32.5224 
G01 X-28.1028 Y32.6544 
G01 X-27.9518 Y32.7641 
G01 X-27.7855 Y32.8488 
G01 X-27.6080 Y32.9064 
G01 X-27.4237 Y32.9356 
G01 X-25.9163 Y32.9356 
G01 X-25.7320 Y32.9064 
G01 X-25.5545 Y32.8488 
G01 X-25.3882 Y32.7641 
G01 X-25.2372 Y32.6544 
G01 X-25.1052 Y32.5224 
G01 X-24.9955 Y32.3714 
G01 X-24.9108 Y32.2051 
G01 X-24.8531 Y32.0276 
G01 X-24.8240 Y31.8433 
G01 X-24.8240 Y31.6567 
G01 X-24.8531 Y31.4724 
G01 X-24.9108 Y31.2949 
G01 X-24.9955 Y31.1286 
G01 X-25.1052 Y30.9776 
G01 X-25.2372 Y30.8456 
G01 X-25.3882 Y30.7359 
G01 X-25.5545 Y30.6512 
G01 X-25.7320 Y30.5935 
G01 X-25.9163 Y30.5644 
G01 X-27.4237 Y30.5644 
G01 X-27.6080 Y30.5935 
G01 X-27.7855 Y30.6512 
G01 X-27.9518 Y30.7359 
G01 X-28.1028 Y30.8456 
G01 X-28.2348 Y30.9776 
G01 X-28.2667 Y31.0216 
G01 X-28.9083 Y31.0216 
G01 X-29.6914 Y30.2384 
G01 X-28.6376 Y30.2384 
G01 X-28.5041 Y30.2026 
G01 X-28.3843 Y30.1335 
G01 X-28.2865 Y30.0357 
G01 X-28.2464 Y29.9663 
G01 X-28.2348 Y29.9824 
G01 X-28.1028 Y30.1144 
G01 X-27.9518 Y30.2241 
G01 X-27.7855 Y30.3088 
G01 X-27.6080 Y30.3665 
G01 X-27.4237 Y30.3956 
G01 X-25.9163 Y30.3956 
G01 X-25.7320 Y30.3665 
G01 X-25.5545 Y30.3088 
G01 X-25.3882 Y30.2241 
G01 X-25.2372 Y30.1144 
G01 X-25.1052 Y29.9824 
G01 X-25.0733 Y29.9384 
G01 X-24.0583 Y29.9384 
G01 X-23.9175 Y29.9105 
G01 X-23.7849 Y29.8555 
G01 X-23.6656 Y29.7758 
G01 X-23.5642 Y29.6744 
G01 X-23.4845 Y29.5550 
G01 X-23.4295 Y29.4225 
G01 X-23.4016 Y29.2817 
G01 X-23.4016 Y12.1584 
G01 X-8.3484 Y12.1584 
G01 X-8.3484 Y17.3397 
G01 X-8.4255 Y17.3957 
G01 X-8.5631 Y17.5333 
G01 X-8.6775 Y17.6908 
G01 X-8.7659 Y17.8642 
G01 X-8.8260 Y18.0493 
G01 X-8.8564 Y18.2415 
G01 X-8.8564 Y19.8585 
G01 X-8.8260 Y20.0507 
G01 X-8.7659 Y20.2358 
G01 X-8.6775 Y20.4092 
G01 X-8.5631 Y20.5667 
G01 X-8.4255 Y20.7043 
G01 X-8.3484 Y20.7603 
G01 X-8.3484 Y23.4016 
G01 X-9.4316 Y23.4016 
G01 X-9.4316 Y20.7603 
G01 X-9.3545 Y20.7043 
G01 X-9.2169 Y20.5667 
G01 X-9.1025 Y20.4092 
G01 X-9.0141 Y20.2358 
G01 X-8.9540 Y20.0507 
G01 X-8.9236 Y19.8585 
G01 X-8.9236 Y18.2415 
G01 X-8.9540 Y18.0493 
G01 X-9.0141 Y17.8642 
G01 X-9.1025 Y17.6908 
G01 X-9.2169 Y17.5333 
G01 X-9.3545 Y17.3957 
G01 X-9.4316 Y17.3397 
G01 X-9.4316 Y13.8983 
G01 X-9.4595 Y13.7575 
G01 X-9.5145 Y13.6250 
G01 X-9.5942 Y13.5056 
G01 X-9.6956 Y13.4042 
G01 X-9.8149 Y13.3245 
G01 X-9.9475 Y13.2695 
G01 X-10.0883 Y13.2416 
G01 X-17.8939 Y13.2416 
G01 X-18.0100 Y13.0818 
G01 X-18.1618 Y12.9300 
G01 X-18.3354 Y12.8039 
G01 X-18.5266 Y12.7064 
G01 X-18.7307 Y12.6401 
G01 X-18.9427 Y12.6066 
G01 X-19.1573 Y12.6066 
G01 X-19.3693 Y12.6401 
G01 X-19.5734 Y12.7064 
G01 X-19.7646 Y12.8039 
G01 X-19.9382 Y12.9300 
G01 X-20.0900 Y13.0818 
G01 X-20.2161 Y13.2554 
G01 X-20.3136 Y13.4466 
G01 X-20.3799 Y13.6507 
G01 X-20.4134 Y13.8627 
G01 X-20.4134 Y14.0773 
G01 X-20.3799 Y14.2893 
G01 X-20.3136 Y14.4934 
G01 X-20.2161 Y14.6846 
G01 X-20.0900 Y14.8582 
G01 X-19.9382 Y15.0100 
G01 X-19.7646 Y15.1361 
G01 X-19.5734 Y15.2336 
G01 X-19.5535 Y15.2400 
G01 X-19.5734 Y15.2464 
G01 X-19.7646 Y15.3439 
G01 X-19.9382 Y15.4700 
G01 X-20.0900 Y15.6218 
G01 X-20.2161 Y15.7954 
G01 X-20.3136 Y15.9866 
G01 X-20.3799 Y16.1907 
G01 X-20.4134 Y16.4027 
G01 X-20.4134 Y16.6173 
G01 X-20.3799 Y16.8293 
G01 X-20.3136 Y17.0334 
G01 X-20.2161 Y17.2246 
G01 X-20.0900 Y17.3982 
G01 X-19.9382 Y17.5500 
G01 X-19.7646 Y17.6761 
G01 X-19.5734 Y17.7736 
G01 X-19.5535 Y17.7800 
G01 X-19.5734 Y17.7864 
G01 X-19.7646 Y17.8839 
G01 X-19.9382 Y18.0100 
G01 X-20.0900 Y18.1618 
G01 X-20.2161 Y18.3354 
G01 X-20.3136 Y18.5266 
G01 X-20.3799 Y18.7307 
G01 X-20.4134 Y18.9427 
G01 X-20.4134 Y19.1573 
G01 X-20.3799 Y19.3693 
G01 X-20.3136 Y19.5734 
G01 X-20.2161 Y19.7646 
G01 X-20.0900 Y19.9382 
G01 X-19.9382 Y20.0900 
G01 X-19.7646 Y20.2161 
G01 X-19.7441 Y20.2266 
G01 X-19.9574 Y20.2266 
G01 X-20.0909 Y20.2623 
G01 X-20.2107 Y20.3315 
G01 X-20.3085 Y20.4293 
G01 X-20.3776 Y20.5491 
G01 X-20.4134 Y20.6826 
G01 X-20.4134 Y22.4974 
G01 X-20.3776 Y22.6309 
G01 X-20.3085 Y22.7507 
G01 X-20.2107 Y22.8485 
G01 X-20.0909 Y22.9176 
G01 X-19.9574 Y22.9534 
G01 X-18.1426 Y22.9534 
G01 X-18.0091 Y22.9176 
G01 X-17.8893 Y22.8485 
G01 X-17.7915 Y22.7507 
G01 X-17.7223 Y22.6309 
G01 X-17.6866 Y22.4974 
G01 X-17.6866 Y20.6826 
G01 X-17.7223 Y20.5491 
G01 X-17.7915 Y20.4293 
G01 X-17.8893 Y20.3315 
G01 X-18.0091 Y20.2623 
G01 X-18.1426 Y20.2266 
G01 X-18.3559 Y20.2266 
G01 X-18.3354 Y20.2161 
G01 X-18.1618 Y20.0900 
G01 X-18.0100 Y19.9382 
G01 X-17.8839 Y19.7646 
G01 X-17.7864 Y19.5734 
G01 X-17.7201 Y19.3693 
G01 X-17.6866 Y19.1573 
G01 X-17.6866 Y18.9427 
G01 X-17.7201 Y18.7307 
G01 X-17.7864 Y18.5266 
G01 X-17.8839 Y18.3354 
G01 X-18.0100 Y18.1618 
G01 X-18.1618 Y18.0100 
G01 X-18.3354 Y17.8839 
G01 X-18.5266 Y17.7864 
G01 X-18.5465 Y17.7800 
G01 X-18.5266 Y17.7736 
G01 X-18.3354 Y17.6761 
G01 X-18.1618 Y17.5500 
G01 X-18.0100 Y17.3982 
G01 X-17.8839 Y17.2246 
G01 X-17.7864 Y17.0334 
G01 X-17.7201 Y16.8293 
G01 X-17.6866 Y16.6173 
G01 X-17.6866 Y16.4027 
G01 X-17.7201 Y16.1907 
G01 X-17.7864 Y15.9866 
G01 X-17.8839 Y15.7954 
G01 X-18.0100 Y15.6218 
G01 X-18.1618 Y15.4700 
G01 X-18.3354 Y15.3439 
G01 X-18.5266 Y15.2464 
G01 X-18.5465 Y15.2400 
G01 X-18.5266 Y15.2336 
G01 X-18.3354 Y15.1361 
G01 X-18.1618 Y15.0100 
G01 X-18.0100 Y14.8582 
G01 X-17.8939 Y14.6984 
G01 X-10.8884 Y14.6984 
G01 X-10.8884 Y17.3397 
G01 X-10.9655 Y17.3957 
G01 X-11.1031 Y17.5333 
G01 X-11.2175 Y17.6908 
G01 X-11.3059 Y17.8642 
G01 X-11.3660 Y18.0493 
G01 X-11.3964 Y18.2415 
G01 X-11.3964 Y19.8585 
G01 X-11.3660 Y20.0507 
G01 X-11.3059 Y20.2358 
G01 X-11.2175 Y20.4092 
G01 X-11.1031 Y20.5667 
G01 X-10.9655 Y20.7043 
G01 X-10.8884 Y20.7603 
G01 X-10.8884 Y23.4016 
G01 X-14.2116 Y23.4016 
G01 X-14.2116 Y22.2876 
G01 X-14.2473 Y22.1541 
G01 X-14.3165 Y22.0343 
G01 X-14.4143 Y21.9365 
G01 X-14.5341 Y21.8673 
G01 X-14.6676 Y21.8316 
G01 X-15.8124 Y21.8316 
G01 X-15.8750 Y21.8483 
G01 X-15.9376 Y21.8316 
G01 X-17.0824 Y21.8316 
G01 X-17.2159 Y21.8673 
G01 X-17.3357 Y21.9365 
G01 X-17.4335 Y22.0343 
G01 X-17.5026 Y22.1541 
G01 X-17.5384 Y22.2876 
G01 X-17.5384 Y23.4323 
G01 X-17.5026 Y23.5659 
G01 X-17.4335 Y23.6857 
G01 X-17.3357 Y23.7835 
G01 X-17.2159 Y23.8527 
G01 X-17.0824 Y23.8884 
G01 X-16.2684 Y23.8884 
G01 X-16.2684 Y24.7023 
G01 X-16.2326 Y24.8359 
G01 X-16.1635 Y24.9557 
G01 X-16.0657 Y25.0535 
G01 X-15.9459 Y25.1227 
G01 X-15.8124 Y25.1584 
G01 X-14.6676 Y25.1584 
G01 X-14.5341 Y25.1227 
G01 X-14.4143 Y25.0535 
G01 X-14.3165 Y24.9557 
G01 X-14.2603 Y24.8584 
G01 X-10.8884 Y24.8584 
G01 X-10.8884 Y25.6499 
G01 X-11.1801 Y25.9416 
G01 X-17.4533 Y25.9416 
G01 X-17.4852 Y25.8976 
G01 X-17.6172 Y25.7656 
G01 X-17.7682 Y25.6559 
G01 X-17.9345 Y25.5712 
G01 X-18.1120 Y25.5135 
G01 X-18.2963 Y25.4844 
G01 X-19.8037 Y25.4844 
G01 X-19.9880 Y25.5135 
G01 X-20.1655 Y25.5712 
G01 X-20.3318 Y25.6559 
G01 X-20.4828 Y25.7656 
G01 X-20.6148 Y25.8976 
G01 X-20.6467 Y25.9416 
G01 X-21.6617 Y25.9416 
G01 X-21.8025 Y25.9695 
G01 X-21.9350 Y26.0245 
G01 X-22.0544 Y26.1042 
G01 X-22.1558 Y26.2056 
G01 X-22.2355 Y26.3250 
G01 X-22.2904 Y26.4575 
G01 X-22.3184 Y26.5983 
G01 X-22.3184 Y36.1016 
G01 X-25.0733 Y36.1016 
G01 X-25.1052 Y36.0576 
G01 X-25.2372 Y35.9256 
G01 X-25.3882 Y35.8159 
G01 X-25.5545 Y35.7312 
G01 X-25.7320 Y35.6735 
G01 X-25.9163 Y35.6444 
G01 X-27.4237 Y35.6444 
G01 X-27.6080 Y35.6735 
G01 X-27.7855 Y35.7312 
G01 X-27.9518 Y35.8159 
G01 X-28.1028 Y35.9256 
G01 X-28.2348 Y36.0576 
G01 X-28.3445 Y36.2086 
G01 X-28.4292 Y36.3749 
G01 X-28.4869 Y36.5524 
G01 X-28.5160 Y36.7367 
G01 X-28.5160 Y36.9233 
G01 X-28.4869 Y37.1076 
G01 X-28.4292 Y37.2851 
G01 X-28.3445 Y37.4514 
G01 X-28.2348 Y37.6024 
G01 X-28.1028 Y37.7344 
G01 X-27.9518 Y37.8441 
G01 X-27.7855 Y37.9288 
G01 X-27.6080 Y37.9864 
G01 X-27.4237 Y38.0156 
G01 X-25.9163 Y38.0156 
G01 X-25.7320 Y37.9864 
G01 X-25.5545 Y37.9288 
G01 X-25.3882 Y37.8441 
G01 X-25.2372 Y37.7344 
G01 X-25.1052 Y37.6024 
G01 X-25.0733 Y37.5584 
G01 X-21.5182 Y37.5584 
G01 X-21.3775 Y37.5305 
G01 X-21.2449 Y37.4755 
G01 X-21.1256 Y37.3958 
G01 X-21.0242 Y37.2944 
G01 X-20.9445 Y37.1750 
G01 X-20.8895 Y37.0425 
G01 X-20.8827 Y37.0078 
G01 X-20.8668 Y37.1076 
G01 X-20.8092 Y37.2851 
G01 X-20.7245 Y37.4514 
G01 X-20.6148 Y37.6024 
G01 X-20.4828 Y37.7344 
G01 X-20.3318 Y37.8441 
G01 X-20.1655 Y37.9288 
G01 X-19.9880 Y37.9864 
G01 X-19.8037 Y38.0156 
G01 X-18.2963 Y38.0156 
G01 X-18.1120 Y37.9864 
G01 X-17.9345 Y37.9288 
G01 X-17.7682 Y37.8441 
G01 X-17.6172 Y37.7344 
G01 X-17.4852 Y37.6024 
G01 X-17.3755 Y37.4514 
G01 X-17.2908 Y37.2851 
G01 X-17.2331 Y37.1076 
G01 X-17.2040 Y36.9233 
G01 X-17.2040 Y36.7367 
G01 X-17.2331 Y36.5524 
G01 X-17.2908 Y36.3749 
G01 X-17.3755 Y36.2086 
G01 X-17.4852 Y36.0576 
G01 X-17.6172 Y35.9256 
G01 X-17.7682 Y35.8159 
G01 X-17.9345 Y35.7312 
G01 X-18.1120 Y35.6735 
G01 X-18.2963 Y35.6444 
G01 X-19.8037 Y35.6444 
G01 X-19.9880 Y35.6735 
G01 X-20.1655 Y35.7312 
G01 X-20.3318 Y35.8159 
G01 X-20.4828 Y35.9256 
G01 X-20.6148 Y36.0576 
G01 X-20.7245 Y36.2086 
G01 X-20.8092 Y36.3749 
G01 X-20.8616 Y36.5361 
G01 X-20.8616 Y34.5839 
G01 X-20.8092 Y34.7451 
G01 X-20.7245 Y34.9114 
G01 X-20.6148 Y35.0624 
G01 X-20.4828 Y35.1944 
G01 X-20.3318 Y35.3041 
G01 X-20.1655 Y35.3888 
G01 X-19.9880 Y35.4464 
G01 X-19.8037 Y35.4756 
G01 X-18.2963 Y35.4756 
G01 X-18.1120 Y35.4464 
G01 X-17.9345 Y35.3888 
G01 X-17.7682 Y35.3041 
G01 X-17.6172 Y35.1944 
G01 X-17.4852 Y35.0624 
G01 X-17.3755 Y34.9114 
G01 X-17.2908 Y34.7451 
G01 X-17.2331 Y34.5676 
G01 X-17.2040 Y34.3833 
G01 X-17.2040 Y34.1967 
G01 X-17.2331 Y34.0124 
G01 X-17.2908 Y33.8349 
G01 X-17.3755 Y33.6686 
G01 X-17.4852 Y33.5176 
G01 X-17.6172 Y33.3856 
G01 X-17.7682 Y33.2759 
G01 X-17.9345 Y33.1912 
G01 X-18.1120 Y33.1335 
G01 X-18.2963 Y33.1044 
G01 X-19.8037 Y33.1044 
G01 X-19.9880 Y33.1335 
G01 X-20.1655 Y33.1912 
G01 X-20.3318 Y33.2759 
G01 X-20.4828 Y33.3856 
G01 X-20.6148 Y33.5176 
G01 X-20.7245 Y33.6686 
G01 X-20.8092 Y33.8349 
G01 X-20.8616 Y33.9961 
G01 X-20.8616 Y32.0439 
G01 X-20.8092 Y32.2051 
G01 X-20.7245 Y32.3714 
G01 X-20.6148 Y32.5224 
G01 X-20.4828 Y32.6544 
G01 X-20.3318 Y32.7641 
G01 X-20.1655 Y32.8488 
G01 X-19.9880 Y32.9064 
G01 X-19.8037 Y32.9356 
G01 X-18.2963 Y32.9356 
G01 X-18.1120 Y32.9064 
G01 X-17.9345 Y32.8488 
G01 X-17.7682 Y32.7641 
G01 X-17.6172 Y32.6544 
G01 X-17.4852 Y32.5224 
G01 X-17.4533 Y32.4784 
G01 X-16.2197 Y32.4784 
G01 X-16.1635 Y32.5757 
G01 X-16.0657 Y32.6735 
G01 X-15.9459 Y32.7426 
G01 X-15.9168 Y32.7505 
G01 X-15.9405 Y32.8075 
G01 X-15.9684 Y32.9483 
G01 X-15.9684 Y38.3416 
G01 X-17.0824 Y38.3416 
G01 X-17.2159 Y38.3773 
G01 X-17.3357 Y38.4465 
G01 X-17.4335 Y38.5443 
G01 X-17.4736 Y38.6137 
G01 X-17.4852 Y38.5976 
G01 X-17.6172 Y38.4656 
G01 X-17.7682 Y38.3559 
G01 X-17.9345 Y38.2712 
G01 X-18.1120 Y38.2135 
G01 X-18.2963 Y38.1844 
G01 X-19.8037 Y38.1844 
G01 X-19.9880 Y38.2135 
G01 X-20.1655 Y38.2712 
G01 X-20.3318 Y38.3559 
G01 X-20.4828 Y38.4656 
G01 X-20.6148 Y38.5976 
G01 X-20.7245 Y38.7486 
G01 X-20.8092 Y38.9149 
G01 X-20.8668 Y39.0924 
G01 X-20.8960 Y39.2767 
G01 X-20.8960 Y39.4633 
G01 X-20.8668 Y39.6476 
G01 X-20.8092 Y39.8251 
G01 X-20.7245 Y39.9914 
G01 X-20.6148 Y40.1424 
G01 X-20.4828 Y40.2744 
G01 X-20.3318 Y40.3841 
G01 X-20.1655 Y40.4688 
G01 X-19.9880 Y40.5264 
G01 X-19.8037 Y40.5556 
G01 X-18.2963 Y40.5556 
G01 X-18.1120 Y40.5264 
G01 X-17.9345 Y40.4688 
G01 X-17.7682 Y40.3841 
G01 X-17.6172 Y40.2744 
G01 X-17.4852 Y40.1424 
G01 X-17.4736 Y40.1263 
G01 X-17.4335 Y40.1957 
G01 X-17.3357 Y40.2935 
G01 X-17.2159 Y40.3627 
G01 X-17.0824 Y40.3984 
G01 X-15.9684 Y40.3984 
G01 X-15.9684 Y43.4216 
G01 X-17.0824 Y43.4216 
G01 X-17.2159 Y43.4573 
G01 X-17.3357 Y43.5265 
G01 X-17.4335 Y43.6243 
G01 X-17.4736 Y43.6937 
G01 X-17.4852 Y43.6776 
G01 X-17.6172 Y43.5456 
G01 X-17.7682 Y43.4359 
G01 X-17.9345 Y43.3512 
G01 X-18.1120 Y43.2935 
G01 X-18.2963 Y43.2644 
G01 X-19.8037 Y43.2644 
G01 X-19.9880 Y43.2935 
G01 X-20.1655 Y43.3512 
G01 X-20.3318 Y43.4359 
G01 X-20.4828 Y43.5456 
G01 X-20.6148 Y43.6776 
G01 X-20.7245 Y43.8286 
G01 X-20.8092 Y43.9949 
G01 X-20.8616 Y44.1561 
G01 X-20.8616 Y42.6384 
G01 X-20.6467 Y42.6384 
G01 X-20.6148 Y42.6824 
G01 X-20.4828 Y42.8144 
G01 X-20.3318 Y42.9241 
G01 X-20.1655 Y43.0088 
G01 X-19.9880 Y43.0665 
G01 X-19.8037 Y43.0956 
G01 X-18.2963 Y43.0956 
G01 X-18.1120 Y43.0665 
G01 X-17.9345 Y43.0088 
G01 X-17.7682 Y42.9241 
G01 X-17.6172 Y42.8144 
G01 X-17.4852 Y42.6824 
G01 X-17.3755 Y42.5314 
G01 X-17.2908 Y42.3651 
G01 X-17.2331 Y42.1876 
G01 X-17.2040 Y42.0033 
G01 X-17.2040 Y41.8167 
G01 X-17.2331 Y41.6324 
G01 X-17.2908 Y41.4549 
G01 X-17.3755 Y41.2886 
G01 X-17.4852 Y41.1376 
G01 X-17.6172 Y41.0056 
G01 X-17.7682 Y40.8959 
G01 X-17.9345 Y40.8112 
G01 X-18.1120 Y40.7535 
G01 X-18.2963 Y40.7244 
G01 X-19.8037 Y40.7244 
G01 X-19.9880 Y40.7535 
G01 X-20.1655 Y40.8112 
G01 X-20.3318 Y40.8959 
G01 X-20.4828 Y41.0056 
G01 X-20.6148 Y41.1376 
G01 X-20.6467 Y41.1816 
G01 X-21.6617 Y41.1816 
G01 X-21.8025 Y41.2095 
G01 X-21.9350 Y41.2645 
G01 X-22.0544 Y41.3442 
G01 X-22.1558 Y41.4456 
G01 X-22.2250 Y41.5492 
G01 X-22.2942 Y41.4456 
G01 X-22.3956 Y41.3442 
G01 X-22.5149 Y41.2645 
G01 X-22.6475 Y41.2095 
G01 X-22.7883 Y41.1816 
G01 X-25.0733 Y41.1816 
G01 X-25.1052 Y41.1376 
G01 X-25.2372 Y41.0056 
G01 X-25.3882 Y40.8959 
G01 X-25.5545 Y40.8112 
G01 X-25.7320 Y40.7535 
G01 X-25.9163 Y40.7244 
G01 X-27.4237 Y40.7244 
G01 X-27.6080 Y40.7535 
G01 X-27.7855 Y40.8112 
G01 X-27.9518 Y40.8959 
G01 X-28.1028 Y41.0056 
G01 X-28.2348 Y41.1376 
G01 X-28.3445 Y41.2886 
G01 X-28.4292 Y41.4549 
G01 X-28.4869 Y41.6324 
G01 X-28.5160 Y41.8167 
G01 X-28.5160 Y42.0033 
G01 X-28.4869 Y42.1876 
G01 X-28.4292 Y42.3651 
G01 X-28.3445 Y42.5314 
G01 X-28.2348 Y42.6824 
G01 X-28.1028 Y42.8144 
G01 X-27.9518 Y42.9241 
G01 X-27.7855 Y43.0088 
G01 X-27.6080 Y43.0665 
G01 X-27.4237 Y43.0956 
G01 X-25.9163 Y43.0956 
G01 X-25.7320 Y43.0665 
G01 X-25.5545 Y43.0088 
G01 X-25.3882 Y42.9241 
G01 X-25.2372 Y42.8144 
G01 X-25.1052 Y42.6824 
G01 X-25.0733 Y42.6384 
G01 X-23.5884 Y42.6384 
G01 X-23.5884 Y48.5503 
G01 X-23.6857 Y48.6065 
G01 X-23.7835 Y48.7043 
G01 X-23.8527 Y48.8241 
G01 X-23.8884 Y48.9576 
G01 X-23.8884 Y50.1024 
G01 X-23.8527 Y50.2359 
G01 X-23.7835 Y50.3557 
G01 X-23.6857 Y50.4535 
G01 X-23.5659 Y50.5226 
G01 X-23.4323 Y50.5584 
G01 X-22.2876 Y50.5584 
G01 X-22.1541 Y50.5226 
G01 X-22.0343 Y50.4535 
G01 X-21.9365 Y50.3557 
G01 X-21.8673 Y50.2359 
G01 X-21.8316 Y50.1024 
G01 X-21.8316 Y48.9576 
G01 X-21.8343 Y48.9472 
G01 X-21.8025 Y48.9605 
G01 X-21.6617 Y48.9884 
G01 X-17.4897 Y48.9884 
G01 X-17.4335 Y49.0857 
G01 X-17.3357 Y49.1835 
G01 X-17.2159 Y49.2527 
G01 X-17.0824 Y49.2884 
G01 X-15.9684 Y49.2884 
G01 X-15.9684 Y50.9348 
G01 X-16.0189 Y50.8844 
G01 X-17.0011 Y50.8844 
G01 X-17.6956 Y51.5789 
G01 X-17.6956 Y52.5611 
G01 X-17.0011 Y53.2556 
G01 X-16.0189 Y53.2556 
G01 X-15.8750 Y53.1118 
G01 X-15.7311 Y53.2556 
G01 X-14.7489 Y53.2556 
G01 X-14.0544 Y52.5611 
G01 X-14.0544 Y51.5789 
G01 X-14.5116 Y51.1217 
G01 X-14.5116 Y47.4786 
G01 X-14.4344 Y47.5558 
G01 X-14.3150 Y47.6355 
G01 X-14.1825 Y47.6904 
G01 X-14.0417 Y47.7184 
G01 X-10.8884 Y47.7184 
G01 X-10.8884 Y52.1417 
G01 X-10.8605 Y52.2825 
G01 X-10.8055 Y52.4150 
G01 X-10.7258 Y52.5344 
G01 X-10.6244 Y52.6358 
G01 X-10.5050 Y52.7155 
G01 X-10.3725 Y52.7704 
G01 X-10.2317 Y52.7984 
G01 X-6.0283 Y52.7984 
G01 X-5.5711 Y53.2556 
G01 X-4.5889 Y53.2556 
G01 X-3.8944 Y52.5611 
G01 X-3.8944 Y51.5789 
G01 X-4.3516 Y51.1217 
G01 X-4.3516 Y50.5584 
G01 X-3.2376 Y50.5584 
G01 X-3.1041 Y50.5226 
G01 X-2.9843 Y50.4535 
G01 X-2.8865 Y50.3557 
G01 X-2.8173 Y50.2359 
G01 X-2.7816 Y50.1024 
G01 X-2.7816 Y49.2884 
G01 X-1.9676 Y49.2884 
G01 X-1.8341 Y49.2527 
G01 X-1.7143 Y49.1835 
G01 X-1.6165 Y49.0857 
G01 X-1.5473 Y48.9659 
G01 X-1.5116 Y48.8323 
G01 X-1.5116 Y48.0184 
G01 X-0.6976 Y48.0184 
G01 X-0.5641 Y47.9826 
G01 X-0.4443 Y47.9135 
G01 X-0.3465 Y47.8157 
G01 X-0.2773 Y47.6959 
G01 X-0.2416 Y47.5624 
G01 X-0.2416 Y46.4176 
G01 X-0.2773 Y46.2841 
G01 X-0.3465 Y46.1643 
G01 X-0.4443 Y46.0665 
G01 X-0.5416 Y46.0103 
G01 X-0.5416 Y26.5983 
G01 X-0.5695 Y26.4575 
G01 X-0.6245 Y26.3250 
G01 X-0.7042 Y26.2056 
G01 X-0.8056 Y26.1042 
G01 X-0.9250 Y26.0245 
G01 X-1.0575 Y25.9695 
G01 X-1.1983 Y25.9416 
G01 X-6.5998 Y25.9416 
G01 X-6.8916 Y25.6498 
G01 X-6.8916 Y24.8584 
G01 X-3.5197 Y24.8584 
G01 X-3.4635 Y24.9557 
G01 X-3.3657 Y25.0535 
G01 X-3.2459 Y25.1227 
G01 X-3.1124 Y25.1584 
G01 X-1.9676 Y25.1584 
G01 X-1.8341 Y25.1227 
G01 X-1.7143 Y25.0535 
G01 X-1.6165 Y24.9557 
G01 X-1.5473 Y24.8359 
G01 X-1.5116 Y24.7023 
G01 X-1.5116 Y23.5576 
G01 X-1.5473 Y23.4241 
G01 X-1.6165 Y23.3043 
G01 X-1.7143 Y23.2065 
G01 X-1.8341 Y23.1373 
G01 X-1.9676 Y23.1016 
G01 X-2.7816 Y23.1016 
G01 X-2.7816 Y22.2876 
G01 X-2.8173 Y22.1541 
G01 X-2.8865 Y22.0343 
G01 X-2.9843 Y21.9365 
G01 X-3.1041 Y21.8673 
G01 X-3.2376 Y21.8316 
G01 X-4.3823 Y21.8316 
G01 X-4.4450 Y21.8483 
G01 X-4.5076 Y21.8316 
G01 X-5.6524 Y21.8316 
G01 X-5.7859 Y21.8673 
G01 X-5.9057 Y21.9365 
G01 X-6.0035 Y22.0343 
G01 X-6.0727 Y22.1541 
G01 X-6.1084 Y22.2876 
G01 X-6.1084 Y23.4016 
G01 X-6.8916 Y23.4016 
G01 X-6.8916 Y20.7603 
G01 X-6.8145 Y20.7043 
G01 X-6.6769 Y20.5667 
G01 X-6.5625 Y20.4092 
G01 X-6.4741 Y20.2358 
G01 X-6.4140 Y20.0507 
G01 X-6.3836 Y19.8585 
G01 X-6.3836 Y18.2415 
G01 X-6.4140 Y18.0493 
G01 X-6.4741 Y17.8642 
G01 X-6.5625 Y17.6908 
G01 X-6.6769 Y17.5333 
G01 X-6.8145 Y17.3957 
G01 X-6.8916 Y17.3397 
G01 X-6.8916 Y11.3582 
G01 X-6.9195 Y11.2175 
G01 X-6.9745 Y11.0849 
G01 X-7.0542 Y10.9656 
G00 Z2.5400 
G00 X-8.3484 Y24.8584 
G01 Z-0.1500 F100.00 
G01 X-8.3484 Y25.6498 F200.00 
G01 X-8.8564 Y26.1578 
G01 X-8.8564 Y26.9434 
G01 X-8.9236 Y26.8763 
G01 X-8.9236 Y26.1578 
G01 X-9.4316 Y25.6499 
G01 X-9.4316 Y24.8584 
G01 X-8.3484 Y24.8584 
G00 Z2.5400 
G00 X-8.1616 Y27.8770 
G01 Z-0.1500 F100.00 
G01 X-8.1321 Y27.9064 F200.00 
G01 X-7.1078 Y27.9064 
G01 X-6.5998 Y27.3984 
G01 X-1.9984 Y27.3984 
G01 X-1.9984 Y30.7216 
G01 X-3.1124 Y30.7216 
G01 X-3.2459 Y30.7573 
G01 X-3.3657 Y30.8265 
G01 X-3.4635 Y30.9243 
G01 X-3.5197 Y31.0216 
G01 X-6.5998 Y31.0216 
G01 X-7.1078 Y30.5136 
G01 X-8.1321 Y30.5136 
G01 X-8.1616 Y30.5430 
G01 X-8.1616 Y30.4170 
G01 X-8.1321 Y30.4464 
G01 X-7.1078 Y30.4464 
G01 X-6.5998 Y29.9384 
G01 X-4.7897 Y29.9384 
G01 X-4.7335 Y30.0357 
G01 X-4.6357 Y30.1335 
G01 X-4.5159 Y30.2026 
G01 X-4.3823 Y30.2384 
G01 X-3.2376 Y30.2384 
G01 X-3.1041 Y30.2026 
G01 X-2.9843 Y30.1335 
G01 X-2.8865 Y30.0357 
G01 X-2.8173 Y29.9159 
G01 X-2.7816 Y29.7824 
G01 X-2.7816 Y28.6376 
G01 X-2.8173 Y28.5041 
G01 X-2.8865 Y28.3843 
G01 X-2.9843 Y28.2865 
G01 X-3.1041 Y28.2173 
G01 X-3.2376 Y28.1816 
G01 X-4.3823 Y28.1816 
G01 X-4.5159 Y28.2173 
G01 X-4.6357 Y28.2865 
G01 X-4.7335 Y28.3843 
G01 X-4.7897 Y28.4816 
G01 X-6.5998 Y28.4816 
G01 X-7.1078 Y27.9736 
G01 X-8.1321 Y27.9736 
G01 X-8.1616 Y28.0030 
G01 X-8.1616 Y27.8770 
G00 Z2.5400 
G00 X-9.8866 Y27.9736 
G01 Z-0.1500 F100.00 
G01 X-10.6722 Y27.9736 F200.00 
G01 X-11.1801 Y28.4816 
G01 X-14.0417 Y28.4816 
G01 X-14.1825 Y28.5095 
G01 X-14.3150 Y28.5645 
G01 X-14.4344 Y28.6442 
G01 X-14.5358 Y28.7456 
G01 X-14.6155 Y28.8650 
G01 X-14.6705 Y28.9975 
G01 X-14.6984 Y29.1382 
G01 X-14.6984 Y30.7216 
G01 X-15.8124 Y30.7216 
G01 X-15.9459 Y30.7573 
G01 X-16.0657 Y30.8265 
G01 X-16.1635 Y30.9243 
G01 X-16.2197 Y31.0216 
G01 X-17.4533 Y31.0216 
G01 X-17.4852 Y30.9776 
G01 X-17.6172 Y30.8456 
G01 X-17.7682 Y30.7359 
G01 X-17.9345 Y30.6512 
G01 X-18.1120 Y30.5935 
G01 X-18.2963 Y30.5644 
G01 X-19.8037 Y30.5644 
G01 X-19.9880 Y30.5935 
G01 X-20.1655 Y30.6512 
G01 X-20.3318 Y30.7359 
G01 X-20.4828 Y30.8456 
G01 X-20.6148 Y30.9776 
G01 X-20.7245 Y31.1286 
G01 X-20.8092 Y31.2949 
G01 X-20.8616 Y31.4561 
G01 X-20.8616 Y29.5039 
G01 X-20.8092 Y29.6651 
G01 X-20.7245 Y29.8314 
G01 X-20.6148 Y29.9824 
G01 X-20.4828 Y30.1144 
G01 X-20.3318 Y30.2241 
G01 X-20.1655 Y30.3088 
G01 X-19.9880 Y30.3665 
G01 X-19.8037 Y30.3956 
G01 X-18.2963 Y30.3956 
G01 X-18.1120 Y30.3665 
G01 X-17.9345 Y30.3088 
G01 X-17.7682 Y30.2241 
G01 X-17.6172 Y30.1144 
G01 X-17.4852 Y29.9824 
G01 X-17.4736 Y29.9663 
G01 X-17.4335 Y30.0357 
G01 X-17.3357 Y30.1335 
G01 X-17.2159 Y30.2026 
G01 X-17.0824 Y30.2384 
G01 X-15.9376 Y30.2384 
G01 X-15.8041 Y30.2026 
G01 X-15.6843 Y30.1335 
G01 X-15.5865 Y30.0357 
G01 X-15.5173 Y29.9159 
G01 X-15.4816 Y29.7824 
G01 X-15.4816 Y28.6376 
G01 X-15.5173 Y28.5041 
G01 X-15.5865 Y28.3843 
G01 X-15.6843 Y28.2865 
G01 X-15.8041 Y28.2173 
G01 X-15.9376 Y28.1816 
G01 X-17.0824 Y28.1816 
G01 X-17.2159 Y28.2173 
G01 X-17.3357 Y28.2865 
G01 X-17.4335 Y28.3843 
G01 X-17.4736 Y28.4537 
G01 X-17.4852 Y28.4376 
G01 X-17.6172 Y28.3056 
G01 X-17.7682 Y28.1959 
G01 X-17.9345 Y28.1112 
G01 X-18.1120 Y28.0535 
G01 X-18.2963 Y28.0244 
G01 X-19.8037 Y28.0244 
G01 X-19.9880 Y28.0535 
G01 X-20.1655 Y28.1112 
G01 X-20.3318 Y28.1959 
G01 X-20.4828 Y28.3056 
G01 X-20.6148 Y28.4376 
G01 X-20.7245 Y28.5886 
G01 X-20.8092 Y28.7549 
G01 X-20.8616 Y28.9161 
G01 X-20.8616 Y27.3984 
G01 X-20.6467 Y27.3984 
G01 X-20.6148 Y27.4424 
G01 X-20.4828 Y27.5744 
G01 X-20.3318 Y27.6841 
G01 X-20.1655 Y27.7688 
G01 X-19.9880 Y27.8265 
G01 X-19.8037 Y27.8556 
G01 X-18.2963 Y27.8556 
G01 X-18.1120 Y27.8265 
G01 X-17.9345 Y27.7688 
G01 X-17.7682 Y27.6841 
G01 X-17.6172 Y27.5744 
G01 X-17.4852 Y27.4424 
G01 X-17.4533 Y27.3984 
G01 X-11.1801 Y27.3984 
G01 X-10.6722 Y27.9064 
G01 X-9.9537 Y27.9064 
G01 X-9.8866 Y27.9736 
G00 Z2.5400 
G00 X-9.6184 Y30.4170 
G01 Z-0.1500 F100.00 
G01 X-9.6184 Y30.5430 F200.00 
G01 X-9.6478 Y30.5136 
G01 X-10.6722 Y30.5136 
G01 X-11.1801 Y31.0216 
G01 X-12.7717 Y31.0216 
G01 X-12.9125 Y31.0495 
G01 X-13.0450 Y31.1045 
G01 X-13.1644 Y31.1842 
G01 X-13.2416 Y31.2614 
G01 X-13.2416 Y29.9384 
G01 X-11.1801 Y29.9384 
G01 X-10.6722 Y30.4464 
G01 X-9.6478 Y30.4464 
G01 X-9.6184 Y30.4170 
G00 Z2.5400 
G00 X-9.1398 Y32.4784 
G01 Z-0.1500 F100.00 
G01 X-8.8183 Y32.4784 F200.00 
G01 X-8.6775 Y32.4504 
G01 X-8.6709 Y32.4477 
G01 X-8.1321 Y32.9864 
G01 X-7.1078 Y32.9864 
G01 X-6.5998 Y32.4784 
G01 X-3.5197 Y32.4784 
G01 X-3.4635 Y32.5757 
G01 X-3.3657 Y32.6735 
G01 X-3.2459 Y32.7426 
G01 X-3.1124 Y32.7784 
G01 X-1.9984 Y32.7784 
G01 X-1.9984 Y38.8814 
G01 X-2.0756 Y38.8042 
G01 X-2.1949 Y38.7245 
G01 X-2.3275 Y38.6695 
G01 X-2.4682 Y38.6416 
G01 X-6.5998 Y38.6416 
G01 X-7.1078 Y38.1336 
G01 X-8.1321 Y38.1336 
G01 X-8.8564 Y38.8578 
G01 X-8.8564 Y39.8822 
G01 X-8.1321 Y40.6064 
G01 X-7.1078 Y40.6064 
G01 X-6.5998 Y40.0984 
G01 X-3.2684 Y40.0984 
G01 X-3.2684 Y41.4214 
G01 X-3.3456 Y41.3442 
G01 X-3.4649 Y41.2645 
G01 X-3.5975 Y41.2095 
G01 X-3.7382 Y41.1816 
G01 X-6.5998 Y41.1816 
G01 X-7.1078 Y40.6736 
G01 X-8.1321 Y40.6736 
G01 X-8.8564 Y41.3978 
G01 X-8.8564 Y42.4222 
G01 X-8.1321 Y43.1464 
G01 X-7.1078 Y43.1464 
G01 X-6.5998 Y42.6384 
G01 X-4.5384 Y42.6384 
G01 X-4.5384 Y43.9614 
G01 X-4.6156 Y43.8842 
G01 X-4.7350 Y43.8045 
G01 X-4.8675 Y43.7495 
G01 X-5.0083 Y43.7216 
G01 X-6.5998 Y43.7216 
G01 X-7.1078 Y43.2136 
G01 X-8.1321 Y43.2136 
G01 X-8.8564 Y43.9378 
G01 X-8.8564 Y44.7234 
G01 X-8.9236 Y44.6563 
G01 X-8.9236 Y43.9378 
G01 X-9.6478 Y43.2136 
G01 X-10.6722 Y43.2136 
G01 X-11.3964 Y43.9378 
G01 X-11.3964 Y44.9622 
G01 X-10.6722 Y45.6864 
G01 X-9.9537 Y45.6864 
G01 X-8.6484 Y46.9917 
G01 X-8.6484 Y47.5624 
G01 X-8.6127 Y47.6959 
G01 X-8.5435 Y47.8157 
G01 X-8.4457 Y47.9135 
G01 X-8.3259 Y47.9826 
G01 X-8.1923 Y48.0184 
G01 X-7.0476 Y48.0184 
G01 X-6.9141 Y47.9826 
G01 X-6.7943 Y47.9135 
G01 X-6.6965 Y47.8157 
G01 X-6.6273 Y47.6959 
G01 X-6.5916 Y47.5624 
G01 X-6.5916 Y46.4176 
G01 X-6.6273 Y46.2841 
G01 X-6.6965 Y46.1643 
G01 X-6.7943 Y46.0665 
G01 X-6.9141 Y45.9973 
G01 X-7.0476 Y45.9616 
G01 X-7.6183 Y45.9616 
G01 X-7.8934 Y45.6864 
G01 X-7.1078 Y45.6864 
G01 X-6.5998 Y45.1784 
G01 X-5.8084 Y45.1784 
G01 X-5.8084 Y51.1217 
G01 X-6.0283 Y51.3416 
G01 X-9.4316 Y51.3416 
G01 X-9.4316 Y46.9183 
G01 X-9.4595 Y46.7775 
G01 X-9.5145 Y46.6450 
G01 X-9.5942 Y46.5256 
G01 X-9.6956 Y46.4242 
G01 X-9.8149 Y46.3445 
G01 X-9.9475 Y46.2895 
G01 X-10.0883 Y46.2616 
G01 X-13.2416 Y46.2616 
G01 X-13.2416 Y45.4784 
G01 X-12.1276 Y45.4784 
G01 X-11.9941 Y45.4427 
G01 X-11.8743 Y45.3735 
G01 X-11.7765 Y45.2757 
G01 X-11.7073 Y45.1559 
G01 X-11.6716 Y45.0224 
G01 X-11.6716 Y43.8776 
G01 X-11.7073 Y43.7441 
G01 X-11.7765 Y43.6243 
G01 X-11.8743 Y43.5265 
G01 X-11.9716 Y43.4703 
G01 X-11.9716 Y42.6384 
G01 X-11.1801 Y42.6384 
G01 X-10.6722 Y43.1464 
G01 X-9.6478 Y43.1464 
G01 X-8.9236 Y42.4222 
G01 X-8.9236 Y41.3978 
G01 X-9.6478 Y40.6736 
G01 X-10.6722 Y40.6736 
G01 X-11.1801 Y41.1816 
G01 X-12.7717 Y41.1816 
G01 X-12.9125 Y41.2095 
G01 X-13.0450 Y41.2645 
G01 X-13.1644 Y41.3442 
G01 X-13.2416 Y41.4214 
G01 X-13.2416 Y40.3984 
G01 X-12.1276 Y40.3984 
G01 X-11.9941 Y40.3627 
G01 X-11.8743 Y40.2935 
G01 X-11.7765 Y40.1957 
G01 X-11.7203 Y40.0984 
G01 X-11.1801 Y40.0984 
G01 X-10.6722 Y40.6064 
G01 X-9.6478 Y40.6064 
G01 X-8.9236 Y39.8822 
G01 X-8.9236 Y38.8578 
G01 X-9.6478 Y38.1336 
G01 X-10.6722 Y38.1336 
G01 X-11.1801 Y38.6416 
G01 X-11.7203 Y38.6416 
G01 X-11.7765 Y38.5443 
G01 X-11.8743 Y38.4465 
G01 X-11.9941 Y38.3773 
G01 X-12.0232 Y38.3695 
G01 X-11.9995 Y38.3125 
G01 X-11.9716 Y38.1717 
G01 X-11.9716 Y32.4784 
G01 X-11.1801 Y32.4784 
G01 X-10.6722 Y32.9864 
G01 X-9.6478 Y32.9864 
G01 X-9.1398 Y32.4784 
G00 Z2.5400 
G00 X-9.6478 Y33.0536 
G01 Z-0.1500 F100.00 
G01 X-10.6722 Y33.0536 F200.00 
G01 X-11.3964 Y33.7778 
G01 X-11.3964 Y34.8021 
G01 X-10.6722 Y35.5264 
G01 X-9.6478 Y35.5264 
G01 X-8.9236 Y34.8021 
G01 X-8.9236 Y33.7778 
G01 X-9.6478 Y33.0536 
G00 Z2.5400 
G00 X-8.8564 Y33.7778 
G01 Z-0.1500 F100.00 
G01 X-8.8564 Y34.8021 F200.00 
G01 X-8.1321 Y35.5264 
G01 X-7.1078 Y35.5264 
G01 X-6.3836 Y34.8021 
G01 X-6.3836 Y33.7778 
G01 X-7.1078 Y33.0536 
G01 X-8.1321 Y33.0536 
G01 X-8.8564 Y33.7778 
G00 Z2.5400 
G00 X-8.8564 Y36.3178 
G01 Z-0.1500 F100.00 
G01 X-8.8564 Y37.3421 F200.00 
G01 X-8.1321 Y38.0664 
G01 X-7.1078 Y38.0664 
G01 X-6.3836 Y37.3421 
G01 X-6.3836 Y36.3178 
G01 X-7.1078 Y35.5936 
G01 X-8.1321 Y35.5936 
G01 X-8.8564 Y36.3178 
G00 Z2.5400 
G00 X-8.9236 Y36.3178 
G01 Z-0.1500 F100.00 
G01 X-9.6478 Y35.5936 F200.00 
G01 X-10.6722 Y35.5936 
G01 X-11.3964 Y36.3178 
G01 X-11.3964 Y37.3421 
G01 X-10.6722 Y38.0664 
G01 X-9.6478 Y38.0664 
G01 X-8.9236 Y37.3421 
G01 X-8.9236 Y36.3178 
G00 Z2.5400 
G00 X-13.4284 Y37.3716 
G01 Z-0.1500 F100.00 
G01 X-14.0417 Y37.3716 F200.00 
G01 X-14.1825 Y37.3995 
G01 X-14.3150 Y37.4545 
G01 X-14.4344 Y37.5342 
G01 X-14.5116 Y37.6114 
G01 X-14.5116 Y33.7484 
G01 X-13.8983 Y33.7484 
G01 X-13.7575 Y33.7204 
G01 X-13.6250 Y33.6655 
G01 X-13.5056 Y33.5858 
G01 X-13.4284 Y33.5086 
G01 X-13.4284 Y37.3716 
G00 Z2.5400 
G00 X-15.9684 Y45.4784 
G01 Z-0.1500 F100.00 
G01 X-15.9684 Y47.2316 F200.00 
G01 X-17.0824 Y47.2316 
G01 X-17.2159 Y47.2673 
G01 X-17.3357 Y47.3365 
G01 X-17.4335 Y47.4343 
G01 X-17.4897 Y47.5316 
G01 X-20.8616 Y47.5316 
G01 X-20.8616 Y44.7439 
G01 X-20.8092 Y44.9051 
G01 X-20.7245 Y45.0714 
G01 X-20.6148 Y45.2224 
G01 X-20.4828 Y45.3544 
G01 X-20.3318 Y45.4641 
G01 X-20.1655 Y45.5488 
G01 X-19.9880 Y45.6065 
G01 X-19.8037 Y45.6356 
G01 X-18.2963 Y45.6356 
G01 X-18.1120 Y45.6065 
G01 X-17.9345 Y45.5488 
G01 X-17.7682 Y45.4641 
G01 X-17.6172 Y45.3544 
G01 X-17.4852 Y45.2224 
G01 X-17.4736 Y45.2063 
G01 X-17.4335 Y45.2757 
G01 X-17.3357 Y45.3735 
G01 X-17.2159 Y45.4427 
G01 X-17.0824 Y45.4784 
G01 X-15.9684 Y45.4784 
G00 Z2.5400 
G00 X-24.8584 Y28.4816 
G01 Z-0.1500 F100.00 
G01 X-25.0733 Y28.4816 F200.00 
G01 X-25.1052 Y28.4376 
G01 X-25.2372 Y28.3056 
G01 X-25.3882 Y28.1959 
G01 X-25.5545 Y28.1112 
G01 X-25.7320 Y28.0535 
G01 X-25.9163 Y28.0244 
G01 X-27.4237 Y28.0244 
G01 X-27.6080 Y28.0535 
G01 X-27.7855 Y28.1112 
G01 X-27.9518 Y28.1959 
G01 X-28.1028 Y28.3056 
G01 X-28.2348 Y28.4376 
G01 X-28.2464 Y28.4537 
G01 X-28.2865 Y28.3843 
G01 X-28.3843 Y28.2865 
G01 X-28.5041 Y28.2173 
G01 X-28.6376 Y28.1816 
G01 X-29.7516 Y28.1816 
G01 X-29.7516 Y19.7784 
G01 X-27.8261 Y19.7784 
G01 X-27.7100 Y19.9382 
G01 X-27.5582 Y20.0900 
G01 X-27.3846 Y20.2161 
G01 X-27.1934 Y20.3136 
G01 X-27.1735 Y20.3200 
G01 X-27.1934 Y20.3264 
G01 X-27.3846 Y20.4239 
G01 X-27.5582 Y20.5500 
G01 X-27.7100 Y20.7018 
G01 X-27.8261 Y20.8616 
G01 X-28.0117 Y20.8616 
G01 X-28.1525 Y20.8895 
G01 X-28.2850 Y20.9445 
G01 X-28.4044 Y21.0242 
G01 X-28.5058 Y21.1256 
G01 X-28.5855 Y21.2449 
G01 X-28.6405 Y21.3775 
G01 X-28.6684 Y21.5182 
G01 X-28.6684 Y24.2017 
G01 X-28.6405 Y24.3425 
G01 X-28.5855 Y24.4750 
G01 X-28.5058 Y24.5944 
G01 X-28.4044 Y24.6958 
G01 X-28.2850 Y24.7755 
G01 X-28.1525 Y24.8304 
G01 X-28.0117 Y24.8584 
G01 X-24.8584 Y24.8584 
G01 X-24.8584 Y26.3761 
G01 X-24.9108 Y26.2149 
G01 X-24.9955 Y26.0486 
G01 X-25.1052 Y25.8976 
G01 X-25.2372 Y25.7656 
G01 X-25.3882 Y25.6559 
G01 X-25.5545 Y25.5712 
G01 X-25.7320 Y25.5135 
G01 X-25.9163 Y25.4844 
G01 X-27.4237 Y25.4844 
G01 X-27.6080 Y25.5135 
G01 X-27.7855 Y25.5712 
G01 X-27.9518 Y25.6559 
G01 X-28.1028 Y25.7656 
G01 X-28.2348 Y25.8976 
G01 X-28.3445 Y26.0486 
G01 X-28.4292 Y26.2149 
G01 X-28.4869 Y26.3924 
G01 X-28.5160 Y26.5767 
G01 X-28.5160 Y26.7633 
G01 X-28.4869 Y26.9476 
G01 X-28.4292 Y27.1251 
G01 X-28.3445 Y27.2914 
G01 X-28.2348 Y27.4424 
G01 X-28.1028 Y27.5744 
G01 X-27.9518 Y27.6841 
G01 X-27.7855 Y27.7688 
G01 X-27.6080 Y27.8265 
G01 X-27.4237 Y27.8556 
G01 X-25.9163 Y27.8556 
G01 X-25.7320 Y27.8265 
G01 X-25.5545 Y27.7688 
G01 X-25.3882 Y27.6841 
G01 X-25.2372 Y27.5744 
G01 X-25.1052 Y27.4424 
G01 X-24.9955 Y27.2914 
G01 X-24.9108 Y27.1251 
G01 X-24.8584 Y26.9639 
G01 X-24.8584 Y28.4816 
G00 Z2.5400 
G00 X-27.1735 Y17.7800 
G01 Z-0.1500 F100.00 
G01 X-27.1934 Y17.7864 F200.00 
G01 X-27.3846 Y17.8839 
G01 X-27.5582 Y18.0100 
G01 X-27.7100 Y18.1618 
G01 X-27.8261 Y18.3216 
G01 X-30.5517 Y18.3216 
G01 X-30.6925 Y18.3495 
G01 X-30.8250 Y18.4045 
G01 X-30.9444 Y18.4842 
G01 X-31.0216 Y18.5614 
G01 X-31.0216 Y17.2384 
G01 X-27.8261 Y17.2384 
G01 X-27.7100 Y17.3982 
G01 X-27.5582 Y17.5500 
G01 X-27.3846 Y17.6761 
G01 X-27.1934 Y17.7736 
G01 X-27.1735 Y17.7800 
G00 Z2.5400 
G00 X-27.1735 Y15.2400 
G01 Z-0.1500 F100.00 
G01 X-27.1934 Y15.2464 F200.00 
G01 X-27.3846 Y15.3439 
G01 X-27.5582 Y15.4700 
G01 X-27.7100 Y15.6218 
G01 X-27.8261 Y15.7816 
G01 X-31.8217 Y15.7816 
G01 X-31.9625 Y15.8095 
G01 X-32.0950 Y15.8645 
G01 X-32.2144 Y15.9442 
G01 X-32.2916 Y16.0214 
G01 X-32.2916 Y14.6984 
G01 X-27.8261 Y14.6984 
G01 X-27.7100 Y14.8582 
G01 X-27.5582 Y15.0100 
G01 X-27.3846 Y15.1361 
G01 X-27.1934 Y15.2336 
G01 X-27.1735 Y15.2400 
G00 Z2.5400 
G00 X-6.9540 Y10.8834 
G01 Z-0.1500 F100.00 
G01 X-7.0734 Y10.7640 F200.00 
G01 X-7.2138 Y10.6701 
G01 X-7.3699 Y10.6055 
G01 X-7.5355 Y10.5725 
G01 X-24.2144 Y10.5725 
G01 X-24.3801 Y10.6055 
G01 X-24.5362 Y10.6701 
G01 X-24.6766 Y10.7640 
G01 X-24.7960 Y10.8834 
G01 X-24.8899 Y11.0238 
G01 X-24.9545 Y11.1799 
G01 X-24.9874 Y11.3455 
G01 X-24.9874 Y23.2725 
G01 X-27.0825 Y23.2725 
G01 X-27.0825 Y23.0252 
G01 X-27.0195 Y23.0457 
G01 X-26.7875 Y23.0825 
G01 X-26.5525 Y23.0825 
G01 X-26.3205 Y23.0457 
G01 X-26.0971 Y22.9731 
G01 X-25.8878 Y22.8665 
G01 X-25.6977 Y22.7284 
G01 X-25.5316 Y22.5623 
G01 X-25.3935 Y22.3722 
G01 X-25.2869 Y22.1629 
G01 X-25.2143 Y21.9395 
G01 X-25.1775 Y21.7075 
G01 X-25.1775 Y21.4725 
G01 X-25.2143 Y21.2405 
G01 X-25.2869 Y21.0171 
G01 X-25.3935 Y20.8078 
G01 X-25.5316 Y20.6177 
G01 X-25.6977 Y20.4516 
G01 X-25.8789 Y20.3200 
G01 X-25.6977 Y20.1884 
G01 X-25.5316 Y20.0223 
G01 X-25.3935 Y19.8322 
G01 X-25.2869 Y19.6229 
G01 X-25.2143 Y19.3995 
G01 X-25.1775 Y19.1675 
G01 X-25.1775 Y18.9325 
G01 X-25.2143 Y18.7005 
G01 X-25.2869 Y18.4771 
G01 X-25.3935 Y18.2678 
G01 X-25.5316 Y18.0777 
G01 X-25.6977 Y17.9116 
G01 X-25.8789 Y17.7800 
G01 X-25.6977 Y17.6484 
G01 X-25.5316 Y17.4823 
G01 X-25.3935 Y17.2922 
G01 X-25.2869 Y17.0829 
G01 X-25.2143 Y16.8595 
G01 X-25.1775 Y16.6275 
G01 X-25.1775 Y16.3925 
G01 X-25.2143 Y16.1605 
G01 X-25.2869 Y15.9371 
G01 X-25.3935 Y15.7278 
G01 X-25.5316 Y15.5377 
G01 X-25.6977 Y15.3716 
G01 X-25.8789 Y15.2400 
G01 X-25.6977 Y15.1084 
G01 X-25.5316 Y14.9423 
G01 X-25.3935 Y14.7522 
G01 X-25.2869 Y14.5429 
G01 X-25.2143 Y14.3195 
G01 X-25.1775 Y14.0875 
G01 X-25.1775 Y13.8525 
G01 X-25.2143 Y13.6205 
G01 X-25.2869 Y13.3971 
G01 X-25.3935 Y13.1878 
G01 X-25.5316 Y12.9977 
G01 X-25.6977 Y12.8316 
G01 X-25.8878 Y12.6935 
G01 X-26.0971 Y12.5869 
G01 X-26.3205 Y12.5143 
G01 X-26.5525 Y12.4775 
G01 X-26.7875 Y12.4775 
G01 X-27.0195 Y12.5143 
G01 X-27.2429 Y12.5869 
G01 X-27.4522 Y12.6935 
G01 X-27.6423 Y12.8316 
G01 X-27.8084 Y12.9977 
G01 X-27.8918 Y13.1125 
G01 X-33.1044 Y13.1125 
G01 X-33.2701 Y13.1455 
G01 X-33.4262 Y13.2101 
G01 X-33.5666 Y13.3040 
G01 X-33.6860 Y13.4234 
G01 X-33.7799 Y13.5638 
G01 X-33.8445 Y13.7199 
G01 X-33.8775 Y13.8855 
G01 X-33.8775 Y28.0525 
G01 X-34.8576 Y28.0525 
G01 X-34.9840 Y28.0777 
G01 X-35.1031 Y28.1270 
G01 X-35.2103 Y28.1986 
G01 X-35.3014 Y28.2897 
G01 X-35.3730 Y28.3969 
G01 X-35.4223 Y28.5160 
G01 X-35.4475 Y28.6424 
G01 X-35.4475 Y29.7776 
G01 X-35.4223 Y29.9040 
G01 X-35.3730 Y30.0231 
G01 X-35.3014 Y30.1303 
G01 X-35.2103 Y30.2214 
G01 X-35.1474 Y30.2634 
G01 X-35.1474 Y43.2644 
G01 X-35.1145 Y43.4301 
G01 X-35.0499 Y43.5862 
G01 X-34.9560 Y43.7266 
G01 X-34.8366 Y43.8460 
G01 X-33.5666 Y45.1160 
G01 X-33.4262 Y45.2099 
G01 X-33.2701 Y45.2745 
G01 X-33.1044 Y45.3075 
G01 X-28.3321 Y45.3075 
G01 X-28.1868 Y45.4528 
G01 X-28.0194 Y45.5744 
G01 X-27.8350 Y45.6683 
G01 X-27.6382 Y45.7323 
G01 X-27.5275 Y45.7498 
G01 X-27.5275 Y51.0683 
G01 X-27.9846 Y51.5255 
G01 X-27.9846 Y52.6145 
G01 X-27.2145 Y53.3847 
G01 X-26.1255 Y53.3847 
G01 X-25.3553 Y52.6145 
G01 X-25.3553 Y51.5255 
G01 X-25.8125 Y51.0683 
G01 X-25.8125 Y45.7498 
G01 X-25.7018 Y45.7323 
G01 X-25.5049 Y45.6683 
G01 X-25.3206 Y45.5744 
G01 X-25.1532 Y45.4528 
G01 X-25.0068 Y45.3064 
G01 X-24.8852 Y45.1390 
G01 X-24.7913 Y44.9547 
G01 X-24.7273 Y44.7578 
G01 X-24.6949 Y44.5535 
G01 X-24.6949 Y44.3465 
G01 X-24.7273 Y44.1422 
G01 X-24.7913 Y43.9453 
G01 X-24.8852 Y43.7610 
G01 X-25.0068 Y43.5936 
G01 X-25.1532 Y43.4472 
G01 X-25.3206 Y43.3256 
G01 X-25.5049 Y43.2317 
G01 X-25.6640 Y43.1800 
G01 X-25.5049 Y43.1283 
G01 X-25.3206 Y43.0344 
G01 X-25.1532 Y42.9128 
G01 X-25.0079 Y42.7674 
G01 X-23.7174 Y42.7674 
G01 X-23.7174 Y48.4766 
G01 X-23.7803 Y48.5186 
G01 X-23.8714 Y48.6097 
G01 X-23.9430 Y48.7169 
G01 X-23.9923 Y48.8360 
G01 X-24.0175 Y48.9624 
G01 X-24.0175 Y50.0976 
G01 X-23.9923 Y50.2240 
G01 X-23.9430 Y50.3431 
G01 X-23.8714 Y50.4503 
G01 X-23.7803 Y50.5414 
G01 X-23.6731 Y50.6130 
G01 X-23.5540 Y50.6623 
G01 X-23.4276 Y50.6874 
G01 X-22.2924 Y50.6874 
G01 X-22.1660 Y50.6623 
G01 X-22.0469 Y50.6130 
G01 X-21.9397 Y50.5414 
G01 X-21.8486 Y50.4503 
G01 X-21.7770 Y50.3431 
G01 X-21.7277 Y50.2240 
G01 X-21.7025 Y50.0976 
G01 X-21.7025 Y49.1119 
G01 X-21.6745 Y49.1174 
G01 X-17.5634 Y49.1174 
G01 X-17.5214 Y49.1803 
G01 X-17.4303 Y49.2714 
G01 X-17.3231 Y49.3430 
G01 X-17.2040 Y49.3923 
G01 X-17.0776 Y49.4175 
G01 X-16.0974 Y49.4175 
G01 X-16.0974 Y50.7553 
G01 X-17.0545 Y50.7553 
G01 X-17.8246 Y51.5255 
G01 X-17.8246 Y52.6145 
G01 X-17.0545 Y53.3847 
G01 X-15.9655 Y53.3847 
G01 X-15.8750 Y53.2942 
G01 X-15.7845 Y53.3847 
G01 X-14.6955 Y53.3847 
G01 X-13.9253 Y52.6145 
G01 X-13.9253 Y51.5255 
G01 X-14.3825 Y51.0683 
G01 X-14.3825 Y47.7456 
G01 X-14.3762 Y47.7499 
G01 X-14.2201 Y47.8145 
G01 X-14.0544 Y47.8475 
G01 X-11.0175 Y47.8475 
G01 X-11.0175 Y52.1544 
G01 X-10.9845 Y52.3201 
G01 X-10.9199 Y52.4762 
G01 X-10.8260 Y52.6166 
G01 X-10.7066 Y52.7360 
G01 X-10.5662 Y52.8299 
G01 X-10.4101 Y52.8945 
G01 X-10.2445 Y52.9275 
G01 X-6.0817 Y52.9275 
G01 X-5.6245 Y53.3847 
G01 X-4.5355 Y53.3847 
G01 X-3.7653 Y52.6145 
G01 X-3.7653 Y51.5255 
G01 X-4.2225 Y51.0683 
G01 X-4.2225 Y50.6874 
G01 X-3.2424 Y50.6874 
G01 X-3.1160 Y50.6623 
G01 X-2.9969 Y50.6130 
G01 X-2.8897 Y50.5414 
G01 X-2.7986 Y50.4503 
G01 X-2.7270 Y50.3431 
G01 X-2.6777 Y50.2240 
G01 X-2.6525 Y50.0976 
G01 X-2.6525 Y49.4175 
G01 X-1.9724 Y49.4175 
G01 X-1.8460 Y49.3923 
G01 X-1.7269 Y49.3430 
G01 X-1.6197 Y49.2714 
G01 X-1.5286 Y49.1803 
G01 X-1.4570 Y49.0731 
G01 X-1.4077 Y48.9540 
G01 X-1.3825 Y48.8276 
G01 X-1.3825 Y48.1474 
G01 X-0.7024 Y48.1474 
G01 X-0.5760 Y48.1223 
G01 X-0.4569 Y48.0730 
G01 X-0.3497 Y48.0014 
G01 X-0.2586 Y47.9103 
G01 X-0.1870 Y47.8031 
G01 X-0.1377 Y47.6840 
G01 X-0.1125 Y47.5576 
G01 X-0.1125 Y46.4224 
G01 X-0.1377 Y46.2960 
G01 X-0.1870 Y46.1769 
G01 X-0.2586 Y46.0697 
G01 X-0.3497 Y45.9786 
G01 X-0.4125 Y45.9366 
G01 X-0.4125 Y26.5855 
G01 X-0.4455 Y26.4199 
G01 X-0.5101 Y26.2638 
G01 X-0.6040 Y26.1234 
G01 X-0.7234 Y26.0040 
G01 X-0.8638 Y25.9101 
G01 X-1.0199 Y25.8455 
G01 X-1.1855 Y25.8125 
G01 X-6.5464 Y25.8125 
G01 X-6.7625 Y25.5964 
G01 X-6.7625 Y24.9874 
G01 X-3.5934 Y24.9874 
G01 X-3.5514 Y25.0503 
G01 X-3.4603 Y25.1414 
G01 X-3.3531 Y25.2130 
G01 X-3.2340 Y25.2623 
G01 X-3.1076 Y25.2874 
G01 X-1.9724 Y25.2874 
G01 X-1.8460 Y25.2623 
G01 X-1.7269 Y25.2130 
G01 X-1.6197 Y25.1414 
G01 X-1.5286 Y25.0503 
G01 X-1.4570 Y24.9431 
G01 X-1.4077 Y24.8240 
G01 X-1.3825 Y24.6976 
G01 X-1.3825 Y23.5624 
G01 X-1.4077 Y23.4360 
G01 X-1.4570 Y23.3169 
G01 X-1.5286 Y23.2097 
G01 X-1.6197 Y23.1186 
G01 X-1.7269 Y23.0470 
G01 X-1.8460 Y22.9977 
G01 X-1.9724 Y22.9725 
G01 X-2.6525 Y22.9725 
G01 X-2.6525 Y22.2924 
G01 X-2.6777 Y22.1660 
G01 X-2.7270 Y22.0469 
G01 X-2.7986 Y21.9397 
G01 X-2.8897 Y21.8486 
G01 X-2.9969 Y21.7770 
G01 X-3.1160 Y21.7277 
G01 X-3.2424 Y21.7025 
G01 X-4.3776 Y21.7025 
G01 X-4.4450 Y21.7159 
G01 X-4.5124 Y21.7025 
G01 X-5.6476 Y21.7025 
G01 X-5.7740 Y21.7277 
G01 X-5.8931 Y21.7770 
G01 X-6.0003 Y21.8486 
G01 X-6.0914 Y21.9397 
G01 X-6.1630 Y22.0469 
G01 X-6.2123 Y22.1660 
G01 X-6.2374 Y22.2924 
G01 X-6.2374 Y23.2725 
G01 X-6.7625 Y23.2725 
G01 X-6.7625 Y20.8260 
G01 X-6.7305 Y20.8027 
G01 X-6.5785 Y20.6507 
G01 X-6.4522 Y20.4769 
G01 X-6.3546 Y20.2854 
G01 X-6.2882 Y20.0809 
G01 X-6.2545 Y19.8687 
G01 X-6.2545 Y18.2313 
G01 X-6.2882 Y18.0191 
G01 X-6.3546 Y17.8146 
G01 X-6.4522 Y17.6231 
G01 X-6.5785 Y17.4493 
G01 X-6.7305 Y17.2973 
G01 X-6.7625 Y17.2740 
G01 X-6.7625 Y11.3455 
G01 X-6.7955 Y11.1799 
G01 X-6.8601 Y11.0238 
G01 X-6.9540 Y10.8834 
G00 Z2.5400 
G00 X-8.4774 Y12.2874 
G01 Z-0.1500 F100.00 
G01 X-8.4774 Y17.2740 F200.00 
G01 X-8.5095 Y17.2973 
G01 X-8.6615 Y17.4493 
G01 X-8.7878 Y17.6231 
G01 X-8.8854 Y17.8146 
G01 X-8.8900 Y17.8288 
G01 X-8.8946 Y17.8146 
G01 X-8.9922 Y17.6231 
G01 X-9.1185 Y17.4493 
G01 X-9.2705 Y17.2973 
G01 X-9.3025 Y17.2740 
G01 X-9.3025 Y13.8855 
G01 X-9.3355 Y13.7199 
G01 X-9.4001 Y13.5638 
G01 X-9.4940 Y13.4234 
G01 X-9.6134 Y13.3040 
G01 X-9.7538 Y13.2101 
G01 X-9.9099 Y13.1455 
G01 X-10.0755 Y13.1125 
G01 X-17.8282 Y13.1125 
G01 X-17.9116 Y12.9977 
G01 X-18.0777 Y12.8316 
G01 X-18.2678 Y12.6935 
G01 X-18.4771 Y12.5869 
G01 X-18.7005 Y12.5143 
G01 X-18.9325 Y12.4775 
G01 X-19.1675 Y12.4775 
G01 X-19.3995 Y12.5143 
G01 X-19.6229 Y12.5869 
G01 X-19.8322 Y12.6935 
G01 X-20.0223 Y12.8316 
G01 X-20.1884 Y12.9977 
G01 X-20.3265 Y13.1878 
G01 X-20.4331 Y13.3971 
G01 X-20.5057 Y13.6205 
G01 X-20.5424 Y13.8525 
G01 X-20.5424 Y14.0875 
G01 X-20.5057 Y14.3195 
G01 X-20.4331 Y14.5429 
G01 X-20.3265 Y14.7522 
G01 X-20.1884 Y14.9423 
G01 X-20.0223 Y15.1084 
G01 X-19.8411 Y15.2400 
G01 X-20.0223 Y15.3716 
G01 X-20.1884 Y15.5377 
G01 X-20.3265 Y15.7278 
G01 X-20.4331 Y15.9371 
G01 X-20.5057 Y16.1605 
G01 X-20.5424 Y16.3925 
G01 X-20.5424 Y16.6275 
G01 X-20.5057 Y16.8595 
G01 X-20.4331 Y17.0829 
G01 X-20.3265 Y17.2922 
G01 X-20.1884 Y17.4823 
G01 X-20.0223 Y17.6484 
G01 X-19.8411 Y17.7800 
G01 X-20.0223 Y17.9116 
G01 X-20.1884 Y18.0777 
G01 X-20.3265 Y18.2678 
G01 X-20.4331 Y18.4771 
G01 X-20.5057 Y18.7005 
G01 X-20.5424 Y18.9325 
G01 X-20.5424 Y19.1675 
G01 X-20.5057 Y19.3995 
G01 X-20.4331 Y19.6229 
G01 X-20.3265 Y19.8322 
G01 X-20.1884 Y20.0223 
G01 X-20.0853 Y20.1253 
G01 X-20.1981 Y20.1720 
G01 X-20.3053 Y20.2436 
G01 X-20.3964 Y20.3347 
G01 X-20.4680 Y20.4419 
G01 X-20.5173 Y20.5610 
G01 X-20.5424 Y20.6874 
G01 X-20.5424 Y22.4926 
G01 X-20.5173 Y22.6190 
G01 X-20.4680 Y22.7381 
G01 X-20.3964 Y22.8453 
G01 X-20.3053 Y22.9364 
G01 X-20.1981 Y23.0080 
G01 X-20.0790 Y23.0573 
G01 X-19.9526 Y23.0825 
G01 X-18.1474 Y23.0825 
G01 X-18.0210 Y23.0573 
G01 X-17.9019 Y23.0080 
G01 X-17.7947 Y22.9364 
G01 X-17.7036 Y22.8453 
G01 X-17.6674 Y22.7911 
G01 X-17.6674 Y23.4276 
G01 X-17.6423 Y23.5540 
G01 X-17.5930 Y23.6731 
G01 X-17.5214 Y23.7803 
G01 X-17.4303 Y23.8714 
G01 X-17.3231 Y23.9430 
G01 X-17.2040 Y23.9923 
G01 X-17.0776 Y24.0175 
G01 X-16.3974 Y24.0175 
G01 X-16.3974 Y24.6976 
G01 X-16.3723 Y24.8240 
G01 X-16.3230 Y24.9431 
G01 X-16.2514 Y25.0503 
G01 X-16.1603 Y25.1414 
G01 X-16.0531 Y25.2130 
G01 X-15.9340 Y25.2623 
G01 X-15.8076 Y25.2874 
G01 X-14.6724 Y25.2874 
G01 X-14.5460 Y25.2623 
G01 X-14.4269 Y25.2130 
G01 X-14.3197 Y25.1414 
G01 X-14.2286 Y25.0503 
G01 X-14.1866 Y24.9874 
G01 X-11.0175 Y24.9874 
G01 X-11.0175 Y25.5964 
G01 X-11.2336 Y25.8125 
G01 X-17.3879 Y25.8125 
G01 X-17.5332 Y25.6672 
G01 X-17.7006 Y25.5456 
G01 X-17.8849 Y25.4517 
G01 X-18.0817 Y25.3877 
G01 X-18.2861 Y25.3553 
G01 X-19.8139 Y25.3553 
G01 X-20.0182 Y25.3877 
G01 X-20.2151 Y25.4517 
G01 X-20.3994 Y25.5456 
G01 X-20.5668 Y25.6672 
G01 X-20.7121 Y25.8125 
G01 X-21.6745 Y25.8125 
G01 X-21.8401 Y25.8455 
G01 X-21.9962 Y25.9101 
G01 X-22.1366 Y26.0040 
G01 X-22.2560 Y26.1234 
G01 X-22.3499 Y26.2638 
G01 X-22.4145 Y26.4199 
G01 X-22.4474 Y26.5855 
G01 X-22.4474 Y35.9725 
G01 X-25.0079 Y35.9725 
G01 X-25.1532 Y35.8272 
G01 X-25.3206 Y35.7056 
G01 X-25.5049 Y35.6117 
G01 X-25.6640 Y35.5600 
G01 X-25.5049 Y35.5083 
G01 X-25.3206 Y35.4144 
G01 X-25.1532 Y35.2928 
G01 X-25.0068 Y35.1464 
G01 X-24.8852 Y34.9790 
G01 X-24.7913 Y34.7946 
G01 X-24.7273 Y34.5978 
G01 X-24.6949 Y34.3935 
G01 X-24.6949 Y34.1865 
G01 X-24.7273 Y33.9821 
G01 X-24.7913 Y33.7853 
G01 X-24.8852 Y33.6010 
G01 X-25.0068 Y33.4336 
G01 X-25.1532 Y33.2872 
G01 X-25.3206 Y33.1656 
G01 X-25.5049 Y33.0717 
G01 X-25.6640 Y33.0200 
G01 X-25.5049 Y32.9683 
G01 X-25.3206 Y32.8744 
G01 X-25.1532 Y32.7528 
G01 X-25.0068 Y32.6064 
G01 X-24.8852 Y32.4390 
G01 X-24.7913 Y32.2546 
G01 X-24.7273 Y32.0578 
G01 X-24.6949 Y31.8535 
G01 X-24.6949 Y31.6465 
G01 X-24.7273 Y31.4422 
G01 X-24.7913 Y31.2453 
G01 X-24.8852 Y31.0610 
G01 X-25.0068 Y30.8936 
G01 X-25.1532 Y30.7472 
G01 X-25.3206 Y30.6256 
G01 X-25.5049 Y30.5317 
G01 X-25.6640 Y30.4800 
G01 X-25.5049 Y30.4283 
G01 X-25.3206 Y30.3344 
G01 X-25.1532 Y30.2128 
G01 X-25.0079 Y30.0675 
G01 X-24.0455 Y30.0675 
G01 X-23.8799 Y30.0345 
G01 X-23.7238 Y29.9699 
G01 X-23.5834 Y29.8760 
G01 X-23.4640 Y29.7566 
G01 X-23.3701 Y29.6162 
G01 X-23.3055 Y29.4601 
G01 X-23.2725 Y29.2945 
G01 X-23.2725 Y24.0455 
G01 X-23.2725 Y12.2874 
G01 X-8.4774 Y12.2874 
G00 Z2.5400 
G00 X-11.0175 Y14.8275 
G01 Z-0.1500 F100.00 
G01 X-11.0175 Y17.2740 F200.00 
G01 X-11.0495 Y17.2973 
G01 X-11.2015 Y17.4493 
G01 X-11.3278 Y17.6231 
G01 X-11.4254 Y17.8146 
G01 X-11.4918 Y18.0191 
G01 X-11.5254 Y18.2313 
G01 X-11.5254 Y19.8687 
G01 X-11.4918 Y20.0809 
G01 X-11.4254 Y20.2854 
G01 X-11.3278 Y20.4769 
G01 X-11.2015 Y20.6507 
G01 X-11.0495 Y20.8027 
G01 X-11.0175 Y20.8260 
G01 X-11.0175 Y23.2725 
G01 X-14.0825 Y23.2725 
G01 X-14.0825 Y22.2924 
G01 X-14.1077 Y22.1660 
G01 X-14.1570 Y22.0469 
G01 X-14.2286 Y21.9397 
G01 X-14.3197 Y21.8486 
G01 X-14.4269 Y21.7770 
G01 X-14.5460 Y21.7277 
G01 X-14.6724 Y21.7025 
G01 X-15.8076 Y21.7025 
G01 X-15.8750 Y21.7159 
G01 X-15.9424 Y21.7025 
G01 X-17.0776 Y21.7025 
G01 X-17.2040 Y21.7277 
G01 X-17.3231 Y21.7770 
G01 X-17.4303 Y21.8486 
G01 X-17.5214 Y21.9397 
G01 X-17.5575 Y21.9939 
G01 X-17.5575 Y20.6874 
G01 X-17.5827 Y20.5610 
G01 X-17.6320 Y20.4419 
G01 X-17.7036 Y20.3347 
G01 X-17.7947 Y20.2436 
G01 X-17.9019 Y20.1720 
G01 X-18.0147 Y20.1253 
G01 X-17.9116 Y20.0223 
G01 X-17.7735 Y19.8322 
G01 X-17.6669 Y19.6229 
G01 X-17.5943 Y19.3995 
G01 X-17.5575 Y19.1675 
G01 X-17.5575 Y18.9325 
G01 X-17.5943 Y18.7005 
G01 X-17.6669 Y18.4771 
G01 X-17.7735 Y18.2678 
G01 X-17.9116 Y18.0777 
G01 X-18.0777 Y17.9116 
G01 X-18.2589 Y17.7800 
G01 X-18.0777 Y17.6484 
G01 X-17.9116 Y17.4823 
G01 X-17.7735 Y17.2922 
G01 X-17.6669 Y17.0829 
G01 X-17.5943 Y16.8595 
G01 X-17.5575 Y16.6275 
G01 X-17.5575 Y16.3925 
G01 X-17.5943 Y16.1605 
G01 X-17.6669 Y15.9371 
G01 X-17.7735 Y15.7278 
G01 X-17.9116 Y15.5377 
G01 X-18.0777 Y15.3716 
G01 X-18.2589 Y15.2400 
G01 X-18.0777 Y15.1084 
G01 X-17.9116 Y14.9423 
G01 X-17.8282 Y14.8275 
G01 X-11.0175 Y14.8275 
G00 Z2.5400 
G00 X-8.8900 Y20.2712 
G01 Z-0.1500 F100.00 
G01 X-8.8854 Y20.2854 F200.00 
G01 X-8.7878 Y20.4769 
G01 X-8.6615 Y20.6507 
G01 X-8.5095 Y20.8027 
G01 X-8.4774 Y20.8260 
G01 X-8.4774 Y23.2725 
G01 X-9.3025 Y23.2725 
G01 X-9.3025 Y20.8260 
G01 X-9.2705 Y20.8027 
G01 X-9.1185 Y20.6507 
G01 X-8.9922 Y20.4769 
G01 X-8.8946 Y20.2854 
G01 X-8.8900 Y20.2712 
G00 Z2.5400 
G00 X-8.4774 Y24.9874 
G01 Z-0.1500 F100.00 
G01 X-8.4774 Y25.5964 F200.00 
G01 X-8.8900 Y26.0090 
G01 X-9.3025 Y25.5964 
G01 X-9.3025 Y24.9874 
G01 X-8.4774 Y24.9874 
G00 Z2.5400 
G00 X-6.9590 Y27.9400 
G01 Z-0.1500 F100.00 
G01 X-6.5464 Y27.5275 F200.00 
G01 X-2.1275 Y27.5275 
G01 X-2.1275 Y30.5925 
G01 X-3.1076 Y30.5925 
G01 X-3.2340 Y30.6177 
G01 X-3.3531 Y30.6670 
G01 X-3.4603 Y30.7386 
G01 X-3.5514 Y30.8297 
G01 X-3.5934 Y30.8925 
G01 X-6.5464 Y30.8925 
G01 X-6.9590 Y30.4800 
G01 X-6.5464 Y30.0675 
G01 X-4.8634 Y30.0675 
G01 X-4.8214 Y30.1303 
G01 X-4.7303 Y30.2214 
G01 X-4.6231 Y30.2930 
G01 X-4.5040 Y30.3423 
G01 X-4.3776 Y30.3675 
G01 X-3.2424 Y30.3675 
G01 X-3.1160 Y30.3423 
G01 X-2.9969 Y30.2930 
G01 X-2.8897 Y30.2214 
G01 X-2.7986 Y30.1303 
G01 X-2.7270 Y30.0231 
G01 X-2.6777 Y29.9040 
G01 X-2.6525 Y29.7776 
G01 X-2.6525 Y28.6424 
G01 X-2.6777 Y28.5160 
G01 X-2.7270 Y28.3969 
G01 X-2.7986 Y28.2897 
G01 X-2.8897 Y28.1986 
G01 X-2.9969 Y28.1270 
G01 X-3.1160 Y28.0777 
G01 X-3.2424 Y28.0525 
G01 X-4.3776 Y28.0525 
G01 X-4.5040 Y28.0777 
G01 X-4.6231 Y28.1270 
G01 X-4.7303 Y28.1986 
G01 X-4.8214 Y28.2897 
G01 X-4.8634 Y28.3525 
G01 X-6.5464 Y28.3525 
G01 X-6.9590 Y27.9400 
G00 Z2.5400 
G00 X-10.8210 Y27.9400 
G01 Z-0.1500 F100.00 
G01 X-11.2336 Y28.3525 F200.00 
G01 X-14.0544 Y28.3525 
G01 X-14.2201 Y28.3855 
G01 X-14.3762 Y28.4501 
G01 X-14.5166 Y28.5440 
G01 X-14.6360 Y28.6634 
G01 X-14.7299 Y28.8038 
G01 X-14.7945 Y28.9599 
G01 X-14.8275 Y29.1255 
G01 X-14.8275 Y30.5925 
G01 X-15.8076 Y30.5925 
G01 X-15.9340 Y30.6177 
G01 X-16.0531 Y30.6670 
G01 X-16.1603 Y30.7386 
G01 X-16.2514 Y30.8297 
G01 X-16.2934 Y30.8925 
G01 X-17.3879 Y30.8925 
G01 X-17.5332 Y30.7472 
G01 X-17.7006 Y30.6256 
G01 X-17.8849 Y30.5317 
G01 X-18.0440 Y30.4800 
G01 X-17.8849 Y30.4283 
G01 X-17.7006 Y30.3344 
G01 X-17.5332 Y30.2128 
G01 X-17.4860 Y30.1656 
G01 X-17.4303 Y30.2214 
G01 X-17.3231 Y30.2930 
G01 X-17.2040 Y30.3423 
G01 X-17.0776 Y30.3675 
G01 X-15.9424 Y30.3675 
G01 X-15.8160 Y30.3423 
G01 X-15.6969 Y30.2930 
G01 X-15.5897 Y30.2214 
G01 X-15.4986 Y30.1303 
G01 X-15.4270 Y30.0231 
G01 X-15.3777 Y29.9040 
G01 X-15.3525 Y29.7776 
G01 X-15.3525 Y28.6424 
G01 X-15.3777 Y28.5160 
G01 X-15.4270 Y28.3969 
G01 X-15.4986 Y28.2897 
G01 X-15.5897 Y28.1986 
G01 X-15.6969 Y28.1270 
G01 X-15.8160 Y28.0777 
G01 X-15.9424 Y28.0525 
G01 X-17.0776 Y28.0525 
G01 X-17.2040 Y28.0777 
G01 X-17.3231 Y28.1270 
G01 X-17.4303 Y28.1986 
G01 X-17.4860 Y28.2544 
G01 X-17.5332 Y28.2072 
G01 X-17.7006 Y28.0856 
G01 X-17.8849 Y27.9917 
G01 X-18.0440 Y27.9400 
G01 X-17.8849 Y27.8883 
G01 X-17.7006 Y27.7944 
G01 X-17.5332 Y27.6728 
G01 X-17.3879 Y27.5275 
G01 X-11.2336 Y27.5275 
G01 X-10.8210 Y27.9400 
G00 Z2.5400 
G00 X-11.2336 Y30.0675 
G01 Z-0.1500 F100.00 
G01 X-10.8210 Y30.4800 F200.00 
G01 X-11.2336 Y30.8925 
G01 X-12.7844 Y30.8925 
G01 X-12.9501 Y30.9255 
G01 X-13.1062 Y30.9901 
G01 X-13.1125 Y30.9944 
G01 X-13.1125 Y30.0675 
G01 X-11.2336 Y30.0675 
G00 Z2.5400 
G00 X-11.2336 Y32.6075 
G01 Z-0.1500 F100.00 
G01 X-10.8210 Y33.0200 F200.00 
G01 X-11.5254 Y33.7244 
G01 X-11.5254 Y34.8556 
G01 X-10.8210 Y35.5600 
G01 X-11.5254 Y36.2644 
G01 X-11.5254 Y37.3956 
G01 X-10.8210 Y38.1000 
G01 X-11.2336 Y38.5125 
G01 X-11.6466 Y38.5125 
G01 X-11.6886 Y38.4497 
G01 X-11.7797 Y38.3586 
G01 X-11.8658 Y38.3011 
G01 X-11.8425 Y38.1844 
G01 X-11.8425 Y32.6075 
G01 X-11.2336 Y32.6075 
G00 Z2.5400 
G00 X-9.4990 Y33.0200 
G01 Z-0.1500 F100.00 
G01 X-9.0864 Y32.6075 F200.00 
G01 X-8.8055 Y32.6075 
G01 X-8.7122 Y32.5889 
G01 X-8.2810 Y33.0200 
G01 X-8.8900 Y33.6290 
G01 X-9.4990 Y33.0200 
G00 Z2.5400 
G00 X-9.4990 Y35.5600 
G01 Z-0.1500 F100.00 
G01 X-8.8900 Y34.9510 F200.00 
G01 X-8.2810 Y35.5600 
G01 X-8.8900 Y36.1690 
G01 X-9.4990 Y35.5600 
G00 Z2.5400 
G00 X-9.4990 Y38.1000 
G01 Z-0.1500 F100.00 
G01 X-8.8900 Y37.4910 F200.00 
G01 X-8.2810 Y38.1000 
G01 X-8.8900 Y38.7090 
G01 X-9.4990 Y38.1000 
G00 Z2.5400 
G00 X-9.4990 Y40.6400 
G01 Z-0.1500 F100.00 
G01 X-8.8900 Y40.0310 F200.00 
G01 X-8.2810 Y40.6400 
G01 X-8.8900 Y41.2490 
G01 X-9.4990 Y40.6400 
G00 Z2.5400 
G00 X-10.8210 Y40.6400 
G01 Z-0.1500 F100.00 
G01 X-11.2336 Y41.0525 F200.00 
G01 X-12.7844 Y41.0525 
G01 X-12.9501 Y41.0855 
G01 X-13.1062 Y41.1501 
G01 X-13.1125 Y41.1544 
G01 X-13.1125 Y40.5275 
G01 X-12.1324 Y40.5275 
G01 X-12.0060 Y40.5023 
G01 X-11.8869 Y40.4530 
G01 X-11.7797 Y40.3814 
G01 X-11.6886 Y40.2903 
G01 X-11.6466 Y40.2274 
G01 X-11.2336 Y40.2274 
G01 X-10.8210 Y40.6400 
G00 Z2.5400 
G00 X-10.8210 Y43.1800 
G01 Z-0.1500 F100.00 
G01 X-11.5254 Y43.8844 F200.00 
G01 X-11.5254 Y45.0156 
G01 X-10.7256 Y45.8154 
G01 X-10.0072 Y45.8154 
G01 X-8.7774 Y47.0452 
G01 X-8.7774 Y47.5576 
G01 X-8.7523 Y47.6840 
G01 X-8.7030 Y47.8031 
G01 X-8.6314 Y47.9103 
G01 X-8.5403 Y48.0014 
G01 X-8.4331 Y48.0730 
G01 X-8.3140 Y48.1223 
G01 X-8.1876 Y48.1474 
G01 X-7.0524 Y48.1474 
G01 X-6.9260 Y48.1223 
G01 X-6.8069 Y48.0730 
G01 X-6.6997 Y48.0014 
G01 X-6.6086 Y47.9103 
G01 X-6.5370 Y47.8031 
G01 X-6.4877 Y47.6840 
G01 X-6.4625 Y47.5576 
G01 X-6.4625 Y46.4224 
G01 X-6.4877 Y46.2960 
G01 X-6.5370 Y46.1769 
G01 X-6.6086 Y46.0697 
G01 X-6.6997 Y45.9786 
G01 X-6.8069 Y45.9070 
G01 X-6.9260 Y45.8577 
G01 X-7.0524 Y45.8325 
G01 X-7.5648 Y45.8325 
G01 X-7.5819 Y45.8154 
G01 X-7.0544 Y45.8154 
G01 X-6.5464 Y45.3075 
G01 X-5.9375 Y45.3075 
G01 X-5.9375 Y51.0683 
G01 X-6.0817 Y51.2125 
G01 X-9.3025 Y51.2125 
G01 X-9.3025 Y46.9055 
G01 X-9.3355 Y46.7399 
G01 X-9.4001 Y46.5838 
G01 X-9.4940 Y46.4434 
G01 X-9.6134 Y46.3240 
G01 X-9.7538 Y46.2301 
G01 X-9.9099 Y46.1655 
G01 X-10.0755 Y46.1325 
G01 X-13.1125 Y46.1325 
G01 X-13.1125 Y45.6075 
G01 X-12.1324 Y45.6075 
G01 X-12.0060 Y45.5823 
G01 X-11.8869 Y45.5330 
G01 X-11.7797 Y45.4614 
G01 X-11.6886 Y45.3703 
G01 X-11.6170 Y45.2631 
G01 X-11.5677 Y45.1440 
G01 X-11.5425 Y45.0176 
G01 X-11.5425 Y43.8824 
G01 X-11.5677 Y43.7560 
G01 X-11.6170 Y43.6369 
G01 X-11.6886 Y43.5297 
G01 X-11.7797 Y43.4386 
G01 X-11.8425 Y43.3966 
G01 X-11.8425 Y42.7674 
G01 X-11.2336 Y42.7674 
G01 X-10.8210 Y43.1800 
G00 Z2.5400 
G00 X-9.4990 Y43.1800 
G01 Z-0.1500 F100.00 
